!!!!SEGMENT: pl-sa--27-a-i-27--006_dankowski-adalbert--vespere-de-confessore-magnificat.krn
!!!cenid: 18xx:331
!!!COM: Dankowski, Adalbert
!!!COM-rismID: pe30000793
!!!CDT: ~1760-~1836
!!!CNT: Polish
!!!OPR: Vespere de confessore
!!!OTL: Magnificat
!!!OMV: 006
!!!PDT: 1815
!!!AGN: Sacred; Vespers
!!!SMS-siglum: PL-SA
!!!SMS-shelfmark: 27/A I 27
!!!SMS-shelfwork: 001-006 M
!!!SMS-variant:
!!!SMS-altvar:
!!!NIFC-rismSourceID: 1001068242
!!!NIFC-rismChildID: 1001068242
!!!NIFC-islandoraID: none
!!!URL-pdf-islandora:
!!!URL-scan: https://bc.bdsandomierz.pl/dlibra/publication/1260/edition/1228/content @EN{Scan in the Sandomierz Diocese Digital Library} @PL{Skany w portalu Cyfrowa Biblioteka Diecezjalna w Sandomierzu}
!!!ONB-nifc: UWAGA: części Vespere: Domine ad adiuvandum, Dixit dominus, Confitebor, Beatus vir, Laudate Dominum, Magnificat
!!!AIN: 1 alto 1 organ 1 tenor 2 violn 1 vox
!!!key:
**kern	**fba	**dynam	**kern	**dynam	**kern	**dynam	**kern	**text	**kern	**text	**kern	**text
*part6	*	*part6	*part5	*part5	*part4	*part4	*part3	*part3	*part2	*part2	*part1	*part1
*	*	*	*group2	*	*group2	*	*group1	*	*group1	*	*group1	*
*staff6	*	*	*staff5	*	*staff4	*	*staff3	*staff3	*staff2	*staff2	*staff1	*staff1
*Iorgan	*	*	*Ivioln	*	*Ivioln	*	*Itenor	*	*Ialto	*	*Ivox	*
*I"Organo.	*	*	*I"Violino 2do	*	*I"Violino Primo.	*	*I"Tenorae	*	*I"Alto=	*	*I"Canto	*
*I'Org.	*	*	*I'V-no II	*	*I'V-no I	*	*I'T.	*	*I'A.	*	*I'C.	*
*clefF4	*	*	*clefG2	*	*clefG2	*	*clefC4	*	*clefC3	*	*clefC1	*
*Trd0c0	*	*	*	*	*	*	*	*	*	*	*	*
*k[]	*	*	*k[]	*	*k[]	*	*k[]	*	*k[]	*	*k[]	*
*C:	*	*	*C:	*	*C:	*	*C:	*	*C:	*	*C:	*
*M3/4	*	*	*M3/4	*	*M3/4	*	*M3/4	*	*M3/4	*	*M3/4	*
=1	=1	=1	=1	=1	=1	=1	=1	=1	=1	=1	=1	=1
!LO:TX:b:Bi:t=Magnificat=	!	!	!LO:TX:b:Bi:t=Magnificat-	!	!LO:TX:b:Bi:t=Magnificat=	!	!	!	!	!	!	!
!LO:TX:a:Bi:t=allo	!	!	!LO:TX:a:Bi:t=allo	!	!LO:TX:a:Bi:t=Allo.	!	!LO:TX:a:i:t=allo. Moderato	!	!LO:TX:a:t=allo.	!	!	!
4C/	.	.	8e/L	.	8cc\L	.	4c\	Ma-	4g\	Ma-	4ee\	Mag-
.	.	.	32e/LL	.	32cc\LL	.	.	.	.	.	.	.
.	.	.	32d/	.	32b\	.	.	.	.	.	.	.
.	.	.	32e/	.	32cc\	.	.	.	.	.	.	.
.	.	.	32f/JJJ	.	32dd\JJJ	.	.	.	.	.	.	.
4G\	4	.	8g/L	.	8ee\L	.	4c\	-gni-	4g\	-gni-	4ee\	-ni-
.	.	.	8e/	.	8cc\	.	.	.	.	.	.	.
4GG/	3	.	8f/	.	8dd\	.	4B\	-fi-	4g\	-fi-	4dd\	-fi-
.	.	.	8d/J	.	8b\J	.	.	.	.	.	.	.
=2	=2	=2	=2	=2	=2	=2	=2	=2	=2	=2	=2	=2
!LO:TX:a:Bi:t=Tutti=	!	!	!	!	!	!	!	!	!	!	!	!
4C/	.	.	16e/LL	.	16cc/LL	.	4c\	-cat	4g\	-cat	4ee\	-cat
.	.	.	16c/	.	16e/	.	.	.	.	.	.	.
.	.	.	16d/	.	16f/	.	.	.	.	.	.	.
.	.	.	16e/JJ	.	16g/JJ	.	.	.	.	.	.	.
4r	.	.	16f/LL	.	16a/LL	.	4r	.	4r	.	4r	.
.	.	.	16e/	.	16g/	.	.	.	.	.	.	.
.	.	.	16f/	.	16a/	.	.	.	.	.	.	.
.	.	.	16g/JJ	.	16b/JJ	.	.	.	.	.	.	.
4r	.	.	16a/LL	.	16cc\LL	.	4r	.	4r	.	4r	.
.	.	.	16g/	.	(16b\	.	.	.	.	.	.	.
.	.	.	16a/	.	16cc\	.	.	.	.	.	.	.
.	.	.	16b/JJ	.	16dd\JJ)	.	.	.	.	.	.	.
=3	=3	=3	=3	=3	=3	=3	=3	=3	=3	=3	=3	=3
4C/	.	.	8cc/L	.	8ee\L	.	4c\	Ma-	4g\	Ma-	4ee\	Ma-
.	.	.	(32e/LL	.	32cc\LL	.	.	.	.	.	.	.
.	.	.	32d/	.	(32b\	.	.	.	.	.	.	.
.	.	.	32e/	.	32cc\	.	.	.	.	.	.	.
.	.	.	32f/JJJ)	.	32dd\JJJ)	.	.	.	.	.	.	.
4G\	4	.	8g/L	.	8ee\L	.	4c\	-gni-	4g\	-gni-	4ee\	-gni-
.	.	.	8e/	.	8cc\	.	.	.	.	.	.	.
4GG/	3	.	8f/	.	8dd\	.	4B\	-fi-	4g\	-fi-	4dd\	-fi-
.	.	.	8d/J	.	8b\J	.	.	.	.	.	.	.
=4	=4	=4	=4	=4	=4	=4	=4	=4	=4	=4	=4	=4
4C/	.	.	8e/L	.	8cc\L	.	4c\	-cat	4g\	-cat	4ee\	-cat
.	.	.	16f/L	.	16dd\L	.	.	.	.	.	.	.
.	.	.	16g/JJ	.	16ee\JJ	.	.	.	.	.	.	.
4r	.	.	16a/LL	.	16ff\LL	.	4r	.	4r	.	4r	.
.	.	.	16g/	.	16ee\	.	.	.	.	.	.	.
.	.	.	16a/	.	16ff\	.	.	.	.	.	.	.
.	.	.	16b/JJ	.	16gg\JJ	.	.	.	.	.	.	.
4r	.	.	16cc\LL	.	(16aa\LL	.	4r	.	4r	.	4r	.
.	.	.	16b\	.	16gg\	.	.	.	.	.	.	.
.	.	.	16cc\	.	16aa\	.	.	.	.	.	.	.
.	.	.	16dd\JJ	.	16bb\JJ)	.	.	.	.	.	.	.
!	!	!	!	!	!LO:LB:g=original	!	!	!	!	!	!	!
=5	=5	=5	=5	=5	=5	=5	=5	=5	=5	=5	=5	=5
*2\right	*	*	*	*	*	*	*	*	*	*	*	*
*tremolo	*	*	*	*	*	*	*	*	*	*	*	*
8c\L	.	.	16cc/LL	.	8ccc\L	.	4.c\	ani-	4.g\	a-	4.ee\	a-
.	.	.	16g/	.	.	.	.	.	.	.	.	.
8c\	.	.	16e/	.	32ee\LL	.	.	.	.	.	.	.
.	.	.	.	.	(32dd\	.	.	.	.	.	.	.
.	.	.	16g/JJ	.	32ee\	.	.	.	.	.	.	.
.	.	.	.	.	32ff\JJJ)	.	.	.	.	.	.	.
*	*	*	*tremolo	*	*	*	*	*	*	*	*	*
8c\	.	.	16e/LL	.	8gg\L	.	.	.	.	.	.	.
.	.	.	16g/	.	.	.	.	.	.	.	.	.
8c\	.	.	16e/	.	8ee\	.	8c\	-ma	8g\	-ni-	8ee\	-ni-
.	.	.	16g/	.	.	.	.	.	.	.	.	.
8c\	.	.	16e/	.	8gg\	.	4c\	.	4g\	-ma	4ee\	-ma
.	.	.	16g/	.	.	.	.	.	.	.	.	.
8c\J	.	.	16e/	.	8ee\J	.	.	.	.	.	.	.
.	.	.	16g/JJ	.	.	.	.	.	.	.	.	.
!	!	!	!LO:LB:g=original	!	!	!	!	!	!	!	!	!
=6	=6	=6	=6	=6	=6	=6	=6	=6	=6	=6	=6	=6
*	*	*	*	*	*	*	*	*	*	*	*	*ij
8B\L	9 5	.	16d/LL	.	8dd\L	.	4.d\	ani-	4.g\	a-	4.ff\	a-
.	.	.	16g/	.	.	.	.	.	.	.	.	.
8B\	.	.	16d/	.	(32dd\LL	.	.	.	.	.	.	.
.	.	.	.	.	32cc\	.	.	.	.	.	.	.
.	.	.	16g/	.	32dd\	.	.	.	.	.	.	.
.	.	.	.	.	32ee\JJJ)	.	.	.	.	.	.	.
8B\	.	.	16d/	.	8ff\L	.	.	.	.	.	.	.
.	.	.	16g/	.	.	.	.	.	.	.	.	.
8B\	.	.	16d/	.	8dd\	.	8d\	-ma	8g\	-ni-	8ff\	-ni-
.	.	.	16g/	.	.	.	.	.	.	.	.	.
8B\	.	.	16d/	.	8gg\	.	4d\	.	4g\	-ma	4ff\	-ma
*	*	*	*	*	*	*	*	*	*	*	*	*Xij
.	.	.	16g/	.	.	.	.	.	.	.	.	.
8B\J	.	.	16d/	.	8ff\J	.	.	.	.	.	.	.
.	.	.	16g/JJ	.	.	.	.	.	.	.	.	.
=7	=7	=7	=7	=7	=7	=7	=7	=7	=7	=7	=7	=7
*	*	*	*	*	*	*	*2\right	*	*2\right	*	*2\right	*
8c\L	.	.	16d/LL	.	8ee\L	.	2c\	me-	2g\	me-	2ee\	me-
.	.	.	16g/	.	.	.	.	.	.	.	.	.
8c\	.	.	16d/	.	(32cc\LL	.	.	.	.	.	.	.
.	.	.	.	.	32b\	.	.	.	.	.	.	.
.	.	.	16g/	.	32cc\	.	.	.	.	.	.	.
.	.	.	.	.	32dd\JJJ)	.	.	.	.	.	.	.
8c\	.	.	16d/	.	8ee\L	.	.	.	.	.	.	.
.	.	.	16g/	.	.	.	.	.	.	.	.	.
8c\	.	.	16d/	.	8cc\	.	.	.	.	.	.	.
.	.	.	16g/	.	.	.	.	.	.	.	.	.
8c\	.	.	16d/	.	8gg\	.	4c\	-a	4g\	-a	4ee\	-a
.	.	.	16g/	.	.	.	.	.	.	.	.	.
8c\J	.	.	16d/	.	8ee\J	.	.	.	.	.	.	.
.	.	.	16g/JJ	.	.	.	.	.	.	.	.	.
!	!	!	!	!	!	!	!LO:LB:g=original	!	!LO:LB:g=original	!	!	!
=8	=8	=8	=8	=8	=8	=8	=8	=8	=8	=8	=8	=8
4G\	4	.	16e/LL	.	8ee\L	.	8c\	Do-	8g\	Do-	8ee\	Do-
.	.	.	16g/	.	.	.	.	.	.	.	.	.
.	.	.	16e/	.	16dd\L	.	8c\	-mi-	8g\	-mi-	8ee\	-mi-
.	.	.	16g/	.	16ee\JJ	.	.	.	.	.	.	.
4GG/	3	.	16e/	.	4dd\	.	4B\	-num	4g\	-num	4dd\	-nu(s)
.	.	.	16g/	.	.	.	.	.	.	.	.	.
.	.	.	16e/	.	.	.	.	.	.	.	.	.
.	.	.	16g/	.	.	.	.	.	.	.	.	.
4r	.	.	16e/	.	4r	.	4r	.	4r	.	4r	.
.	.	.	16g/	.	.	.	.	.	.	.	.	.
.	.	.	16e/	.	.	.	.	.	.	.	.	.
.	.	.	16g/JJ	.	.	.	.	.	.	.	.	.
!	!	!	!	!	!	!	!	!	!	!	!LO:LB:g=original	!
=9	=9	=9	=9	=9	=9	=9	=9	=9	=9	=9	=9	=9
*	*	*	*	*	*	*below	*	*	*	*	*	*
!	!	!	!	!	!	!	!LO:TX:a:t=7.	!	!LO:TX:a:t=7.	!	!LO:TX:a:t=Solo	!
!	!	!	!	!	!	!	!LO:N:vis=00	!	!LO:N:vis=00	!	!	!
4r	.	.	8cc\L	.	8cc\L	.	0.r	.	0.r	.	8cc\L	Et
.	.	.	16b\L	.	8ee\J	pp	.	.	.	.	8ee\J	.
.	.	.	16cc\JJ	.	.	.	.	.	.	.	.	.
*	*	*above	*	*	*	*	*	*	*	*	*	*
!	!	!LO:DY:t=Pia=	!	!	!	!	!	!	!	!	!	!
4C/	.	p	4b\	.	4.gg\	.	.	.	.	.	4.gg\	e-
4C/	.	.	4r	.	.	.	.	.	.	.	.	.
.	.	.	.	.	(16ff\LL	.	.	.	.	.	16ff\LL	-xul-
.	.	.	.	.	16ee\JJ)	.	.	.	.	.	16ee\JJ	.
!LO:LB:g=original	!	!	!	!	!	!	!	!	!	!	!	!
=10	=10	=10	=10	=10	=10	=10	=10	=10	=10	=10	=10	=10
!	!	!	!	!LO:DY:t=p.	!	!	!	!	!	!	!	!
4r	.	.	8e/L	p	8ee\L	.	.	.	.	.	8ee\L	-ta-
.	.	.	8g/J	.	8dd\J	.	.	.	.	.	8dd\J	.
4BB/	9_ 5_	.	8e/L	.	4dd\	.	.	.	.	.	4dd\	-vit
.	.	.	8g/	.	.	.	.	.	.	.	.	.
4BB/	X	.	8e/	.	4r	.	.	.	.	.	4r	.
.	.	.	8g/J	.	.	.	.	.	.	.	.	.
=11	=11	=11	=11	=11	=11	=11	=11	=11	=11	=11	=11	=11
4r	.	.	8f/L	.	8dd\L	.	.	.	.	.	8dd\L	Spi-
.	.	.	8g/	.	(16ee\L	.	.	.	.	.	16ee\L	.
.	.	.	.	.	16ff\JJ)	.	.	.	.	.	16ff\JJ	.
!	!	!	!	!	!LO:LB:g=original	!	!	!	!	!	!	!
4BB/	9_ 5_	.	8f/	.	4.gg\	.	.	.	.	.	4.gg\	-ri-
.	.	.	8g/	.	.	.	.	.	.	.	.	.
4BB/	X	.	8f/	.	.	.	.	.	.	.	.	.
.	.	.	8g/J	.	8ff\	.	.	.	.	.	8ff\	-tus
=12	=12	=12	=12	=12	=12	=12	=12	=12	=12	=12	=12	=12
4r	.	.	8f/L	.	(8ff\L	.	.	.	.	.	8ff\L	me-
.	.	.	8g/	.	8ee\J)	.	.	.	.	.	8ee\J	.
4C/	.	.	8f/	.	4ee\|	.	.	.	.	.	4ee\	-us
.	.	.	8g/	.	.	.	.	.	.	.	.	.
4C/	.	.	8f/	.	4r	.	.	.	.	.	4r	.
.	.	.	8g/J	.	.	.	.	.	.	.	.	.
=13	=13	=13	=13	=13	=13	=13	=13	=13	=13	=13	=13	=13
!	!	!	!	!	!	!	!LO:N:vis=0	!	!LO:N:vis=0	!	!	!
4r	.	.	8e/L	.	4.cc\	.	1.r	.	1.r	.	4cc\	in
.	.	.	8g/	.	.	.	.	.	.	.	.	.
4E\	6_	.	8e/	.	.	.	.	.	.	.	4cc\	De-
.	.	.	8g/	.	(16b\LL	.	.	.	.	.	.	.
.	.	.	.	.	16cc\JJ)	.	.	.	.	.	.	.
4E\	.	.	8e/	.	8ee\L	.	.	.	.	.	8ee\L	-o
.	X	.	8g/J	.	8cc\J	.	.	.	.	.	8cc\J	.
=14	=14	=14	=14	=14	=14	=14	=14	=14	=14	=14	=14	=14
4r	.	.	8f/L	.	4.dd\	.	.	.	.	.	4.dd\	Sa-
.	.	.	8g/	.	.	.	.	.	.	.	.	.
4F\	6_	.	8f/	.	.	.	.	.	.	.	.	.
.	.	.	8g/	.	(16ff\LL	.	.	.	.	.	16ff\LL	.
.	.	.	.	.	16ee\JJ)	.	.	.	.	.	16ee\JJ	.
4F\	.	.	8f/	.	16gg\LL	.	.	.	.	.	16gg\LL	.
.	.	.	.	.	(16ff\	.	.	.	.	.	16ff\JJ	.
.	.	.	8g/J	.	16ee\	.	.	.	.	.	16ee\LL	-lu-
.	X	.	.	.	16dd\JJ)	.	.	.	.	.	16dd\JJ	.
!	!	!	!	!	!	!	!	!	!	!	!LO:LB:g=original	!
=15	=15	=15	=15	=15	=15	=15	=15	=15	=15	=15	=15	=15
4G\	4	.	8e/L	.	8cc\L	.	2.r	.	2.r	.	8cc\	-ta-
.	.	.	8g/	.	16b\L	.	.	.	.	.	16b\LL	-ri
.	.	.	.	.	16cc\JJ	.	.	.	.	.	16cc\JJ	.
4GG/	3_	.	8f/	.	4dd\	.	.	.	.	.	4dd\	me-
.	.	.	8g/J	.	.	.	.	.	.	.	.	.
!	!	!	!LO:LB:g=original	!	!	!	!	!	!	!	!	!
4G\	.	.	8d/L	.	4b\	.	.	.	.	.	4b\	.
.	X	.	8f/J	.	.	.	.	.	.	.	.	.
=16	=16	=16	=16	=16	=16	=16	=16	=16	=16	=16	=16	=16
!LO:TX:a:t=P:problem=mixed beam	!	!	!	!	!	!	!	!	!	!	!	!
!LO:TX:a:t=Tutti	!	!	!	!	!	!LO:DY:t=for.	!	!	!	!	!LO:TX:a:t=Tutti	!
8C/L	.	.	16e/LL	.	4cc 4e/	f	4r	.	4r	.	4cc\	-o
.	.	.	16g/	.	.	.	.	.	.	.	.	.
8c\J	.	.	16e/	.	.	.	.	.	.	.	.	.
.	.	.	16g/	.	.	.	.	.	.	.	.	.
8c\L	.	.	16e/	.	8r	.	2c\	In	2g\	In	2ee\	in
.	.	.	16g/	.	.	.	.	.	.	.	.	.
!	!	!	!	!LO:DY:t=for	!LO:TUP:b:problem=klamra łukowa	!	!	!	!	!	!	!
8c\	.	.	16e/	f	24g/LL	.	.	.	.	.	.	.
.	.	.	.	.	24f/	.	.	.	.	.	.	.
.	.	.	16g/	.	.	.	.	.	.	.	.	.
.	.	.	.	.	24g/JJ	.	.	.	.	.	.	.
8c\	.	.	16e/	.	8cc\L	.	.	.	.	.	.	.
.	.	.	16g/	.	.	.	.	.	.	.	.	.
8c\J	.	.	16e/	.	8ee\J	.	.	.	.	.	.	.
.	.	.	16g/JJ	.	.	.	.	.	.	.	.	.
=17	=17	=17	=17	=17	=17	=17	=17	=17	=17	=17	=17	=17
8c\L	.	.	16e/LL	.	8gg\L	.	2c\	De-	2g\	De-	2ee\	De-
.	.	.	16g/	.	.	.	.	.	.	.	.	.
8c\	.	.	16e/	.	8ee\	.	.	.	.	.	.	.
.	.	.	16g/	.	.	.	.	.	.	.	.	.
8c\	.	.	16e/	.	8ccc\	.	.	.	.	.	.	.
.	.	.	16g/	.	.	.	.	.	.	.	.	.
8c\	.	.	16e/	.	8gg\	.	.	.	.	.	.	.
.	.	.	16g/	.	.	.	.	.	.	.	.	.
8c\	.	.	16e/	.	8ff\	.	4c\	-o	4g\	-o	4ee\	-o
.	.	.	16g/	.	.	.	.	.	.	.	.	.
8c\J	.	.	16e/	.	8ee\J	.	.	.	.	.	.	.
.	.	.	16g/JJ	.	.	.	.	.	.	.	.	.
!	!	!	!	!	!LO:LB:g=original	!	!	!	!	!	!	!
=18	=18	=18	=18	=18	=18	=18	=18	=18	=18	=18	=18	=18
8B\L	6	.	16d/LL	.	4dd\	.	2d\	Sa-	2g\	Sa-	2dd\	Sa-
.	.	.	16g/	.	.	.	.	.	.	.	.	.
8B\	.	.	16d/	.	.	.	.	.	.	.	.	.
.	.	.	16g/	.	.	.	.	.	.	.	.	.
8B\	.	.	16d/	.	8r	.	.	.	.	.	.	.
.	.	.	16g/	.	.	.	.	.	.	.	.	.
!	!	!	!	!	!LO:TUP:b:problem=klamra łukowa	!	!	!	!	!	!	!
8B\	.	.	16d/	.	24g/LL	.	.	.	.	.	.	.
.	.	.	.	.	24f/	.	.	.	.	.	.	.
.	.	.	16g/	.	.	.	.	.	.	.	.	.
.	.	.	.	.	24g/JJ	.	.	.	.	.	.	.
8B\	.	.	16d/	.	8b\L	.	4d\	-lu-	4g\	-lu-	4dd\	-lu-
.	.	.	16g/	.	.	.	.	.	.	.	.	.
8B\J	.	.	16d/	.	8dd\J	.	.	.	.	.	.	.
.	.	.	16g/JJ	.	.	.	.	.	.	.	.	.
=19	=19	=19	=19	=19	=19	=19	=19	=19	=19	=19	=19	=19
8B\L	.	.	16d/LL	.	8gg\L	.	2d\	-ta-	2g\	-ta-	2dd\	-ta-
.	.	.	16g/	.	.	.	.	.	.	.	.	.
8B\	.	.	16d/	.	8dd\	.	.	.	.	.	.	.
.	.	.	16g/	.	.	.	.	.	.	.	.	.
8B\	.	.	16d/	.	8bb\	.	.	.	.	.	.	.
.	.	.	16g/	.	.	.	.	.	.	.	.	.
8B\	.	.	16d/	.	8gg\	.	.	.	.	.	.	.
.	.	.	16g/	.	.	.	.	.	.	.	.	.
8B\	.	.	16d/	.	8dd\	.	4d\	-ri	4g\	-ri	4dd\	-ri
.	.	.	16g/	.	.	.	.	.	.	.	.	.
8B\J	.	.	16d/	.	8gg\J	.	.	.	.	.	.	.
.	.	.	16g/JJ	.	.	.	.	.	.	.	.	.
!LO:LB:g=original	!	!	!	!	!	!	!	!	!	!	!	!
=20	=20	=20	=20	=20	=20	=20	=20	=20	=20	=20	=20	=20
8A\L	6 3	.	16c/LL	.	4ff#X\	.	2d\	Sa-	2f#X\	Sa-	2cc\	Sa-
.	.	.	16d/	.	.	.	.	.	.	.	.	.
8A\	.	.	16c/	.	.	.	.	.	.	.	.	.
.	.	.	16d/	.	.	.	.	.	.	.	.	.
8A\	.	.	16c/	.	8r	.	.	.	.	.	.	.
.	.	.	16d/	.	.	.	.	.	.	.	.	.
!	!	!	!	!	!LO:TUP:a:problem=klamra łukowa	!	!	!	!	!	!	!
8A\	.	.	16c/	.	24ff#X\LL	.	.	.	.	.	.	.
.	.	.	.	.	24ee\	.	.	.	.	.	.	.
.	.	.	16d/	.	.	.	.	.	.	.	.	.
.	.	.	.	.	24ff#\JJ	.	.	.	.	.	.	.
8A\	.	.	16c/	.	8ee\L	.	4d\	-lu-	4f#\	-lu-	4cc\	-lu-
.	.	.	16d/	.	.	.	.	.	.	.	.	.
8A\J	.	.	16c/	.	8ff#X\J	.	.	.	.	.	.	.
.	.	.	16d/JJ	.	.	.	.	.	.	.	.	.
=21	=21	=21	=21	=21	=21	=21	=21	=21	=21	=21	=21	=21
8D\L	#	.	16A/LL	.	8aa\L	.	2d\	-ta-	2a\	-ta-	2cc\	-ta-
.	.	.	16d/	.	.	.	.	.	.	.	.	.
8D\	.	.	16A/	.	8ff#X\	.	.	.	.	.	.	.
.	.	.	16d/	.	.	.	.	.	.	.	.	.
8D\	.	.	16A/	.	8dd\	.	.	.	.	.	.	.
.	.	.	16d/	.	.	.	.	.	.	.	.	.
8D\	.	.	16A/	.	8cc\	.	.	.	.	.	.	.
.	.	.	16d/	.	.	.	.	.	.	.	.	.
8D\	.	.	16A/	.	8a\	.	4d\	-ri	4a\	-ri	4cc\	-ri
.	.	.	16d/	.	.	.	.	.	.	.	.	.
8D\J	.	.	16A/	.	8cc\J	.	.	.	.	.	.	.
.	.	.	16d/JJ	.	.	.	.	.	.	.	.	.
=22	=22	=22	=22	=22	=22	=22	=22	=22	=22	=22	=22	=22
8G\L	.	.	16B/LL	.	8b\L	.	4d\	in	4g\	in	4b\	in
.	.	.	16d/	.	.	.	.	.	.	.	.	.
8G\	.	.	16B/	.	8dd\J	.	.	.	.	.	.	.
.	.	.	16d/	.	.	.	.	.	.	.	.	.
8G\	.	.	16B/	.	8r	.	4d\	De-	4g\	De-	4b\	De-
.	.	.	16d/	.	.	.	.	.	.	.	.	.
8G\J	.	.	16B/	.	8dd\|	.	.	.	.	.	.	.
.	.	.	16d/JJ	.	.	.	.	.	.	.	.	.
*Xtremolo	*	*	*Xtremolo	*	*	*	*	*	*	*	*	*
8F#X\L	9 5_	.	16c/LL	.	16dd\LL	.	4d\	-o	4a\	-o	4cc\	-o
.	.	.	16d/	.	(16cc\	.	.	.	.	.	.	.
8F#\J	.	.	16c/	.	16b\	.	.	.	.	.	.	.
.	X	.	16d/JJ	.	16a\JJ)	.	.	.	.	.	.	.
!	!	!	!	!	!	!	!	!	!LO:LB:g=original	!	!	!
=23	=23	=23	=23	=23	=23	=23	=23	=23	=23	=23	=23	=23
*tremolo	*	*	*tremolo	*	*	*	*	*	*	*	*	*
8G\L	.	.	16B/LL	.	8b\L	.	2d\	Sa-	2g\	Sa-	2b\	Sa-
.	.	.	16d/	.	.	.	.	.	.	.	.	.
8G\	.	.	16B/	.	8dd\J	.	.	.	.	.	.	.
.	.	.	16d/	.	.	.	.	.	.	.	.	.
8G\	.	.	16B/	.	8r	.	.	.	.	.	.	.
.	.	.	16d/	.	.	.	.	.	.	.	.	.
8G\J	.	.	16B/	.	8dd\|	.	.	.	.	.	.	.
.	.	.	16d/JJ	.	.	.	.	.	.	.	.	.
*Xtremolo	*	*	*Xtremolo	*	*	*	*	*	*	*	*	*
8F#X\L	9_ 5_	.	16c/LL	.	(16dd\LL	.	4d\	-lu-	4a\	-lu-	4cc\	-lu-
.	.	.	16d/	.	16cc\	.	.	.	.	.	.	.
8F#\J	.	.	16c/	.	16b\	.	.	.	.	.	.	.
.	X	.	16d/JJ	.	16a\JJ)	.	.	.	.	.	.	.
!	!	!	!	!	!LO:LB:g=original	!	!LO:PB:g=original	!	!	!	!LO:LB:g=original	!
=24	=24	=24	=24	=24	=24	=24	=24	=24	=24	=24	=24	=24
*tremolo	*	*	*tremolo	*	*	*	*	*	*	*	*	*
8G\L	.	.	16B/LL	.	8b\L	.	2d\	-ta-	2g\	-ta-	2b\	-ta-
.	.	.	16d/	.	.	.	.	.	.	.	.	.
8G\	.	.	16B/	.	8gg\J	.	.	.	.	.	.	.
.	.	.	16d/	.	.	.	.	.	.	.	.	.
8G\	.	.	16B/	.	8r	.	.	.	.	.	.	.
.	.	.	16d/	.	.	.	.	.	.	.	.	.
8G\J	.	.	16B/	.	8gg\	.	.	.	.	.	.	.
.	.	.	16d/	.	.	.	.	.	.	.	.	.
*Xtremolo	*	*	*	*	*	*	*	*	*	*	*	*
8B\L	6_	.	16B/	.	16gg\LL	.	4d\	-ri	4g\	-ri	4dd\	-ri
.	.	.	16d/	.	16aa\	.	.	.	.	.	.	.
8B\J	.	.	16B/	.	16gg\	.	.	.	.	.	.	.
.	X	.	16d/JJ	.	16ff\JJ	.	.	.	.	.	.	.
!	!	!	!LO:LB:g=original	!	!	!	!	!	!	!	!	!
=25	=25	=25	=25	=25	=25	=25	=25	=25	=25	=25	=25	=25
!LO:TX:a:t=P:problem=mixed beam	!	!	!	!	!	!	!	!	!	!	!	!
8c\L	6_	.	8c/L	.	8ee\L	.	4e\	me-	4a\	me-	4cc\	me-
8c\	.	.	8a/	.	16dd\L	.	.	.	.	.	.	.
.	.	.	.	.	16cc\JJ	.	.	.	.	.	.	.
8d\	4_	.	8g/	.	8b\L	.	2d\	.	4g\	.	4b\	.
8d\	.	.	8b/	.	8gg\	.	.	.	.	.	.	.
8D/	#_	.	8f#X/	.	8a\	.	.	.	4f#X\	.	4a\	.
8D/J	.	.	8a/J	.	8ff#X\J	.	.	.	.	.	.	.
.	X	.	.	.	.	.	.	.	.	.	.	.
=26	=26	=26	=26	=26	=26	=26	=26	=26	=26	=26	=26	=26
4G\	.	.	4b\	.	4gg\	.	4d\	-o	4g\	-o	4b\	-o
4GG/	.	.	4b\	.	4gg\	.	4r	.	4r	.	4r	.
4r	.	.	4r	.	4r	.	4r	.	4r	.	4r	.
=27	=27	=27	=27	=27	=27	=27	=27	=27	=27	=27	=27	=27
!	!	!LO:DY:a:t=Piano	!	!LO:DY:a:t=pia	!	!	!LO:TX:a:t=12	!	!LO:TX:a:t=12.	!	!LO:TX:a:t=Solo	!
!	!	!	!	!	!	!	!LO:N:vis=00	!	!LO:N:vis=00	!	!	!
4G\	.	p	8B/L	p	4.dd\	pp	0.r	.	0.r	.	4.dd\	Qu-
.	.	.	8d/	.	.	.	.	.	.	.	.	.
4GG/	.	.	8B/	.	.	.	.	.	.	.	.	.
.	.	.	8d/	.	16ee\LL	.	.	.	.	.	16ee\LL	-ia
.	.	.	.	.	16ff#X\JJ	.	.	.	.	.	16ff#X\JJ	.
4G\	.	.	8B/	.	(16gg\LL	.	.	.	.	.	16gg\LL	.
.	.	.	.	.	16ff#X\	.	.	.	.	.	16ff#X\JJ	.
.	.	.	8d/J	.	16ee\	.	.	.	.	.	16ee\LL	re-
.	.	.	.	.	16dd\JJ)	.	.	.	.	.	16dd\JJ	.
=28	=28	=28	=28	=28	=28	=28	=28	=28	=28	=28	=28	=28
4r	.	.	8B/L	.	(8.dd\L	.	.	.	.	.	8.dd\L	-spe-
.	.	.	8d/	.	.	.	.	.	.	.	.	.
.	.	.	.	.	16b\Jk)	.	.	.	.	.	16b\Jk	.
4GG/	.	.	8B/	.	4g/	.	.	.	.	.	4g/	-xit
.	.	.	8d/	.	.	.	.	.	.	.	.	.
4G\	.	.	8B/	.	8r	.	.	.	.	.	8r	.
.	.	.	8d/J	.	8g/	.	.	.	.	.	8g\	hu-
=29	=29	=29	=29	=29	=29	=29	=29	=29	=29	=29	=29	=29
4r	.	.	8c/L	.	8a/L	.	.	.	.	.	8a\L	-mi-
.	.	.	8d/	.	16b/L	.	.	.	.	.	16b\L	.
.	.	.	.	.	16cc/JJ	.	.	.	.	.	16cc\JJ	.
4F#X\	9 5_	.	8c/	.	(4.dd\	.	.	.	.	.	4.dd\	.
.	.	.	8d/	.	.	.	.	.	.	.	.	.
4F#\	.	.	8c/	.	.	.	.	.	.	.	.	.
.	X	.	8d/J	.	8cc\)	.	.	.	.	.	8cc\	-li-
!LO:LB:g=original	!	!	!	!	!LO:LB:g=original	!	!	!	!	!	!LO:PB:g=original	!
=30	=30	=30	=30	=30	=30	=30	=30	=30	=30	=30	=30	=30
4r	.	.	8B/L	.	(8cc\L	.	.	.	.	.	8cc\L	-ta-
.	.	.	8d/	.	8b\J	.	.	.	.	.	8b\J	.
4G\	.	.	8B/	.	4b\)	.	.	.	.	.	4b\	-tem
.	.	.	8d/	.	.	.	.	.	.	.	.	.
4GG/	.	.	8B/	.	4r	.	.	.	.	.	4r	.
.	.	.	8d/J	.	.	.	.	.	.	.	.	.
=31	=31	=31	=31	=31	=31	=31	=31	=31	=31	=31	=31	=31
!	!	!	!	!	!	!	!LO:N:vis=00	!	!LO:N:vis=00	!	!	!
4r	.	.	8B/L	.	4.dd\	.	0.r	.	0.r	.	4.dd\	hu-
.	.	.	8d/	.	.	.	.	.	.	.	.	.
4G\	.	.	8B/	.	.	.	.	.	.	.	.	.
.	.	.	8d/	.	16ee\LL	.	.	.	.	.	16ee\LL	.
.	.	.	.	.	16ff#X\JJ	.	.	.	.	.	16ff#X\JJ	.
4G\	.	.	8B/	.	(16gg\LL	.	.	.	.	.	16gg\LL	-mi-
.	.	.	.	.	16ff#X\	.	.	.	.	.	16ff#X\JJ	.
.	.	.	8d/J	.	16ee\	.	.	.	.	.	16ee\LL	-li-
.	.	.	.	.	16dd\JJ)	.	.	.	.	.	16dd\JJ	.
=32	=32	=32	=32	=32	=32	=32	=32	=32	=32	=32	=32	=32
4r	.	.	8B/L	.	8.dd\L	.	.	.	.	.	8.dd\L	-ta-
.	.	.	8d/	.	.	.	.	.	.	.	.	.
.	.	.	.	.	16b\Jk	.	.	.	.	.	16b\Jk	.
4G\	.	.	8B/	.	4g/	.	.	.	.	.	4g\	-tem
.	.	.	8d/	.	.	.	.	.	.	.	.	.
4G\	.	.	8B/	.	8r	.	.	.	.	.	8r	.
.	.	.	8d/J	.	8g/	.	.	.	.	.	8g\	an-
=33	=33	=33	=33	=33	=33	=33	=33	=33	=33	=33	=33	=33
4r	.	.	8c/L	.	(16a/LL	.	.	.	.	.	16a\LL	-ci-
.	.	.	.	.	16g/	.	.	.	.	.	16g\	.
.	.	.	8d/	.	16a/	.	.	.	.	.	16a\	.
.	.	.	.	.	16b/JJ)	.	.	.	.	.	16b\JJ	.
4F#X\	9_ 5_	.	8A/	.	8.cc\L	.	.	.	.	.	4cc\	.
.	.	.	8d/	.	.	.	.	.	.	.	.	.
.	.	.	.	.	16dd\Jk	.	.	.	.	.	.	.
4G\	.	.	8B/	.	(16cc\LL	.	.	.	.	.	4b\	-lae
.	.	.	.	.	16b\	.	.	.	.	.	.	.
.	.	.	8d/J	.	16a\	.	.	.	.	.	.	.
.	X	.	.	.	16b\JJ)	.	.	.	.	.	.	.
=34	=34	=34	=34	=34	=34	=34	=34	=34	=34	=34	=34	=34
4d\	4	.	8g/L	.	8b/L	.	.	.	.	.	4b\	su-
.	.	.	16f#X/L	.	16a/L	.	.	.	.	.	.	.
.	.	.	16g/JJ	.	16b/JJ	.	.	.	.	.	.	.
!	!	!	!LO:LB:g=original	!	!	!	!	!	!	!	!	!
8D\L	#	.	8f#X/L	.	4a/	.	.	.	.	.	4a\	-ae
8F#X\	.	.	8d/	.	.	.	.	.	.	.	.	.
!	!	!	!	!	!	!	!	!	!	!	!LO:TX:a:t=P:problem=nad pauzą jakby pauza ósemkowa	!
8A\	.	.	8f#/	.	4r	.	.	.	.	.	4r	.
8F#\J	.	.	8a/J	.	.	.	.	.	.	.	.	.
=35	=35	=35	=35	=35	=35	=35	=35	=35	=35	=35	=35	=35
*	*	*	*	*	*2\right	*	*	*	*	*	*	*
!	!	!	!	!	!	!	!LO:N:vis=00	!	!LO:N:vis=00	!	!	!
4D\	#_	.	8f#X/L	.	2ff#X\	.	0.r	.	0.r	.	2ff#X\	ec-
.	.	.	8a/	.	.	.	.	.	.	.	.	.
4d\	.	.	8f#/	.	.	.	.	.	.	.	.	.
.	.	.	8a/	.	.	.	.	.	.	.	.	.
4c\	.	.	8f#/	.	16gg\LL	.	.	.	.	.	4ff#\	-ce
.	.	.	.	.	(16ff#\	.	.	.	.	.	.	.
.	.	.	8a/J	.	16ee\	.	.	.	.	.	.	.
.	X	.	.	.	16ff#\JJ)	.	.	.	.	.	.	.
!	!	!	!	!	!LO:LB:g=original	!	!	!	!	!	!LO:LB:g=original	!
=36	=36	=36	=36	=36	=36	=36	=36	=36	=36	=36	=36	=36
4B\	6_	.	8d/L	.	8gg\L	.	.	.	.	.	8gg\L	e-
.	.	.	8g/	.	8dd\J	.	.	.	.	.	8dd\J	.
4B\	.	.	8d/	.	4dd\	.	.	.	.	.	4dd\	-nim
.	.	.	8g/	.	.	.	.	.	.	.	.	.
4B\	.	.	8d/	.	8r	.	.	.	.	.	8r	.
.	X	.	8g/J	.	8dd\	.	.	.	.	.	8dd\	ex
*	*	*	*Xtremolo	*	*	*	*	*	*	*	*	*
=37	=37	=37	=37	=37	=37	=37	=37	=37	=37	=37	=37	=37
4c\	6	.	8e/L	.	(16dd\LL	.	.	.	.	.	16dd\LL	hoc
.	.	.	.	.	16cc\	.	.	.	.	.	16cc\JJ	.
.	.	.	8a/J	.	16ee\	.	.	.	.	.	16ee\LL	be-
.	.	.	.	.	16cc\JJ)	.	.	.	.	.	16cc\JJ	.
4d\	4	.	4g/	.	4b\	.	.	.	.	.	4b\	-a-
4D/	#	.	4f#X/	.	4a\	.	.	.	.	.	4a\	.
=38	=38	=38	=38	=38	=38	=38	=38	=38	=38	=38	=38	=38
!	!	!	!	!	!	!LO:DY:t=for.	!	!	!	!	!LO:TX:a:t=Tutti	!
4G\	.	.	4g/	.	8b\	f	.	.	.	.	8b\	-tam
.	.	.	.	.	4dd\	.	.	.	.	.	8ee\	me-
4r	.	.	4r	.	.	.	.	.	.	.	4ee\	-di-
.	.	.	.	.	4dd\	.	.	.	.	.	.	.
4r	.	.	4r	.	.	.	.	.	.	.	4ee\	-cent
.	.	.	.	.	8dd\	.	.	.	.	.	.	.
!LO:PB:g=original	!	!	!	!	!	!	!	!	!	!	!	!
=39	=39	=39	=39	=39	=39	=39	=39	=39	=39	=39	=39	=39
!	!	!	!	!LO:DY:t=for	!	!	!	!	!	!	!	!
8r	.	.	8r	f	8dd\	.	8r	.	8r	.	2.dd\	o-
8G\L	5 3	.	8b\L	.	4dd\	.	8d\	o-	8b\L	o-	.	.
(8F#X\	3	.	8a\	.	.	.	2d\	-mnes	8a\	.	.	.
8G\	3	.	8b\	.	4dd\	.	.	.	8b\	.	.	.
8A\	3	.	8cc\	.	.	.	.	.	8cc\	.	.	.
8F#\J	3	.	8a\J	.	8dd\	.	.	.	8a\J	.	.	.
=40	=40	=40	=40	=40	=40	=40	=40	=40	=40	=40	=40	=40
4G\)	3	.	4b\	.	8dd\	.	4d\	.	4b\	-mnes	8dd\	-mnes
.	.	.	.	.	4dd\	.	.	.	.	.	8dd\	me-
4r	.	.	4r	.	.	.	4r	.	4r	.	4dd\	-di-
.	.	.	.	.	4dd\	.	.	.	.	.	.	.
4r	.	.	4r	.	.	.	4r	.	4r	.	4dd\	-cent
.	.	.	.	.	8dd\	.	.	.	.	.	.	.
=41	=41	=41	=41	=41	=41	=41	=41	=41	=41	=41	=41	=41
8r	.	.	8r	.	8dd\	.	8r	.	8r	.	2.dd\	o-
8G\L	5 3	.	8b\L	.	4dd\	.	8d\	o-	8b\L	o-	.	.
(8F#X\	3	.	8a\	.	.	.	2d\	.	8a\	.	.	.
8G\	3	.	8b\	.	4dd\	.	.	.	8b\	.	.	.
8A\	3	.	8cc\	.	.	.	.	.	8cc\	.	.	.
8F#\J	3	.	8a\J	.	8dd\	.	.	.	8a\J	.	.	.
=42	=42	=42	=42	=42	=42	=42	=42	=42	=42	=42	=42	=42
4G\)	3	.	8b\L	.	8dd\L	.	4d\	-mnes	4b\	-mnes	4dd\	-mnes
.	.	.	16cc\L	.	16ee\L	.	.	.	.	.	.	.
.	.	.	16a\JJ	.	16ff#X\JJ	.	.	.	.	.	.	.
!	!	!	!	!	!	!	!	!	!LO:LB:g=original	!	!LO:LB:g=original	!
8r	.	.	8b\L	.	8gg\L	.	8r	.	8r	.	8r	.
8G\L	8 3	.	8b\	.	8gg\	.	4d\	ge-	8b\	ge-	8gg\	ge-
8A\	6 3	.	8cc\	.	8ff#X\	.	.	.	8cc\	.	8ff#X\	.
8B\J	n5 3	.	8dd\J	.	8ffn\J	.	8g\	-ne-	8dd\	-ne-	8ffn\	-ne-
!	!	!	!	!	!LO:LB:g=original	!	!	!	!	!	!	!
=43	=43	=43	=43	=43	=43	=43	=43	=43	=43	=43	=43	=43
!LO:TX:a:t=P:problem=mixed beam	!	!	!	!	!	!	!	!	!	!	!	!
8c\L	3	.	8cc\L	.	8ee\L	.	8e\	-ra-	8cc\	-ra-	8ee\	-ra-
8c\	5	.	16b\L	.	16dd\L	.	8e\	-ti-	8cc\	-ti-	8aa\	-ti-
.	.	.	16a\JJ	.	16cc\JJ	.	.	.	.	.	.	.
!	!	!	!	!	!	!	!LO:LB:g=original	!	!	!	!	!
8d\	4_	.	4g/	.	4b/	.	2d\	-o-	4b\	-o-	4gg\	-o-
8d\	.	.	.	.	.	.	.	.	.	.	.	.
8D/	#	.	4f#X/	.	4a/	.	.	.	4a\	.	4ff#X\	.
8D/J	.	.	.	.	.	.	.	.	.	.	.	.
!	!	!	!LO:LB:g=original	!	!	!	!	!	!	!	!	!
=44	=44	=44	=44	=44	=44	=44	=44	=44	=44	=44	=44	=44
4G\	.	.	8.g/L	.	8.b\L	.	4d\	-nes	4b\	-nes	4gg\	-nes
.	.	.	16a/Jk	.	16cc\Jk	.	.	.	.	.	.	.
4GG/	.	.	8b/L	.	16dd\LL	.	4r	.	4r	.	4r	.
.	.	.	.	.	16ee\	.	.	.	.	.	.	.
.	.	.	8b/J	.	16ff#X\	.	.	.	.	.	.	.
.	.	.	.	.	16gg\JJ	.	.	.	.	.	.	.
!LO:TX:a:t=Solo	!	!	!	!	!	!	!	!	!	!	!	!
8r	.	.	16cc/LL	.	16aa\LL	.	4r	.	4r	.	4r	.
.	.	.	16b/	.	16gg\	.	.	.	.	.	.	.
8G\	.	.	16a/	.	16ff#X\	.	.	.	.	.	.	.
.	.	.	16b/JJ	.	16gg\JJ	.	.	.	.	.	.	.
!LO:LB:g=original	!	!	!	!	!	!	!	!	!	!	!	!
=45	=45	=45	=45	=45	=45	=45	=45	=45	=45	=45	=45	=45
!	!	!	!	!	!	!	!LO:TX:a:t=9.	!	!LO:TX:a:t=9.	!	!LO:TX:a:t=1	!
!	!	!	!	!	!	!	!LO:N:vis=00	!	!LO:N:vis=00	!	!	!
4c\	6	.	8cc/L	.	8ee\L	.	0.r	.	0.r	.	2.r	.
.	.	.	16b/L	.	16dd\L	.	.	.	.	.	.	.
.	.	.	16a/JJ	.	16cc\JJ	.	.	.	.	.	.	.
4d\	4	.	8g/L	.	8b\L	.	.	.	.	.	.	.
.	.	.	8b/	.	8gg\	.	.	.	.	.	.	.
4D/	#	.	8f#X/	.	8a\	.	.	.	.	.	.	.
.	.	.	8a/J	.	8ff#X\J	.	.	.	.	.	.	.
=46	=46	=46	=46	=46	=46	=46	=46	=46	=46	=46	=46	=46
*	*	*	*tremolo	*	*	*	*	*	*	*	*	*
!	!	!LO:DY:a:t=pia=	!	!LO:DY:t=p.	!	!LO:DY:t=pia	!	!	!	!	!LO:TX:a:t=Solo	!
4G\	.	p	8g/L	p	4gg\	p	.	.	.	.	4r	.
.	.	.	8b/	.	.	.	.	.	.	.	.	.
4r	.	.	8g/	.	4dd\	.	.	.	.	.	4dd\	Qui-
.	.	.	8b/	.	.	.	.	.	.	.	.	.
4r	.	.	8g/	.	4dd\	.	.	.	.	.	4dd\	-a
.	.	.	8b/J	.	.	.	.	.	.	.	.	.
=47	=47	=47	=47	=47	=47	=47	=47	=47	=47	=47	=47	=47
4D\	#	.	8f#X/L	.	4.dd\	.	.	.	.	.	4.dd\	fe-
.	.	.	8a/	.	.	.	.	.	.	.	.	.
4r	.	.	8f#/	.	.	.	.	.	.	.	.	.
.	.	.	8a/	.	8ee\	.	.	.	.	.	8ee\	.
4r	.	.	8f#/	.	16dd\LL	.	.	.	.	.	16dd\LL	.
.	.	.	.	.	16cc\	.	.	.	.	.	16cc\	.
.	.	.	8a/J	.	16b\	.	.	.	.	.	16b\	.
.	.	.	.	.	16cc\JJ	.	.	.	.	.	16cc\JJ	.
=48	=48	=48	=48	=48	=48	=48	=48	=48	=48	=48	=48	=48
4G\	.	.	8g/L	.	4b\	.	.	.	.	.	4b\	-cit
.	.	.	8b/	.	.	.	.	.	.	.	.	.
4r	.	.	8g/	.	4dd\	.	.	.	.	.	4dd\	mi-
.	.	.	8b/	.	.	.	.	.	.	.	.	.
4r	.	.	8g/	.	4dd\	.	.	.	.	.	4dd\	-hi
.	.	.	8b/J	.	.	.	.	.	.	.	.	.
!	!	!	!	!	!	!	!	!	!	!	!LO:LB:g=original	!
=49	=49	=49	=49	=49	=49	=49	=49	=49	=49	=49	=49	=49
!	!	!	!	!	!	!	!LO:N:vis=00	!	!LO:N:vis=00	!	!	!
4D\	#	.	8f#X/L	.	4.dd\	.	0.r	.	0.r	.	4.dd\	ma-
.	.	.	8a/	.	.	.	.	.	.	.	.	.
4r	.	.	8f#/	.	.	.	.	.	.	.	.	.
.	.	.	8a/	.	8ee\	.	.	.	.	.	8ee\	.
!	!	!	!	!	!LO:LB:g=original	!	!	!	!	!	!	!
4r	.	.	8f#/	.	16dd\LL	.	.	.	.	.	16dd\LL	.
.	.	.	.	.	(16cc\	.	.	.	.	.	16cc\	.
.	.	.	8a/J	.	16b\	.	.	.	.	.	16b\	.
.	.	.	.	.	16cc\JJ)	.	.	.	.	.	16cc\JJ	.
=50	=50	=50	=50	=50	=50	=50	=50	=50	=50	=50	=50	=50
4G\	.	.	4d/	.	4b\	.	.	.	.	.	4b\	-gna
4r	.	.	4d/	.	8b\L	.	.	.	.	.	8b\L	qui
.	.	.	.	.	(8a\	.	.	.	.	.	8a\J	.
4r	.	.	4r	.	8b\	.	.	.	.	.	8b\L	po-
.	.	.	.	.	8cc\J)	.	.	.	.	.	8cc\J	.
=51	=51	=51	=51	=51	=51	=51	=51	=51	=51	=51	=51	=51
4r	.	.	8B/L	.	8dd\L	.	.	.	.	.	8dd\L	-tens
.	.	.	8d/	.	8b\J	.	.	.	.	.	8b\J	.
!LO:TX:a:i:t=Depozuit	!	!	!	!	!	!	!	!	!	!	!	!
4BB/	6_	.	8B/	.	4.g/	.	.	.	.	.	4.g\	eſt
.	.	.	8d/	.	.	.	.	.	.	.	.	.
4BB/	.	.	8B/	.	.	.	.	.	.	.	.	.
.	X	.	8d/J	.	8g#X/	.	.	.	.	.	8g#X\	et
=52	=52	=52	=52	=52	=52	=52	=52	=52	=52	=52	=52	=52
4r	.	.	8c/L	.	8b/L	.	.	.	.	.	8b\L	San-
.	.	.	8e/	.	8a/J	.	.	.	.	.	8a\J	.
4C/	6_	.	8c/	.	4.a/	.	.	.	.	.	4.a\	.
.	.	.	8e/	.	.	.	.	.	.	.	.	.
4C/	.	.	8c/	.	.	.	.	.	.	.	.	.
.	.	.	8e/J	.	(16b/LL	.	.	.	.	.	16b\LL	-ctum
.	X	.	.	.	16cc/JJ)	.	.	.	.	.	16cc\JJ	.
=53	=53	=53	=53	=53	=53	=53	=53	=53	=53	=53	=53	=53
.	.	.	.	.	8qqcc/	.	.	.	.	.	.	.
4D\	4	.	8d/L	.	8b\L	.	2.r	.	2.r	.	8b\	no-
.	.	.	8g/J	.	16a\L	.	.	.	.	.	16a\LL	-men
.	.	.	.	.	16b\JJ	.	.	.	.	.	16b\JJ	.
!	!	!	!LO:LB:g=original	!	!	!	!	!	!	!	!LO:LB:g=original	!
4D\	#_	.	8b/L	.	8dd\L	.	.	.	.	.	8dd\L	e-
.	.	.	8a/	.	8cc\	.	.	.	.	.	8cc\J	.
4D\	.	.	8g/	.	8b\	.	.	.	.	.	8b\L	.
.	X	.	8f#X/J	.	8a\J	.	.	.	.	.	8a\J	.
!LO:LB:g=original	!	!	!	!	!	!	!	!	!	!	!	!
=54	=54	=54	=54	=54	=54	=54	=54	=54	=54	=54	=54	=54
*tremolo	*	*	*	*	*	*	*	*	*	*	*	*
!LO:TX:a:t=Tutti	!	!	!	!LO:DY:rj	!	!	!	!	!	!	!LO:TX:a:t=Tutti	!
8G\L	3_	.	16B/LL	f	4b/	.	4r	.	4r	.	4b\	-jus
.	.	.	16d/	.	.	.	.	.	.	.	.	.
8G\	.	.	16B/	.	.	.	.	.	.	.	.	.
.	.	.	16d/	.	.	.	.	.	.	.	.	.
8G\	.	.	16B/	.	8r	.	4B\	et	4g\	et	4dd\	Et
.	.	.	16d/	.	.	.	.	.	.	.	.	.
8G\	.	.	16B/	.	8g/L	.	.	.	.	.	.	.
.	.	.	16d/	.	.	.	.	.	.	.	.	.
8G\	.	.	16B/	.	8b/	.	4B\	mi-	4g\	mi-	4dd\	mi-
.	.	.	16d/	.	.	.	.	.	.	.	.	.
8G\J	.	.	16B/	.	8dd/J	.	.	.	.	.	.	.
.	.	.	16d/JJ	.	.	.	.	.	.	.	.	.
=55	=55	=55	=55	=55	=55	=55	=55	=55	=55	=55	=55	=55
8Fn\L	.	.	8B/L	.	4gg 4b 4d/	.	2B\	-se-	2g\	-se-	2dd\	-se-
8Fn\	.	.	8d/	.	.	.	.	.	.	.	.	.
8Fn\	.	.	8B/	.	8r	.	.	.	.	.	.	.
8Fn\	.	.	8d/	.	8g/L	.	.	.	.	.	.	.
8Fn\	.	.	8B/	.	8b/	.	4B\	-ri	4g\	-ri-	4dd\	-ri-
8Fn\J	.	.	8d/J	.	8dd/J	.	.	.	.	.	.	.
!	!	!	!	!	!LO:LB:g=original	!	!	!	!	!	!	!
=56	=56	=56	=56	=56	=56	=56	=56	=56	=56	=56	=56	=56
8E\L	6	.	16c/LL	.	4cc\	.	4.c\	-cor-	4.g\	-cor-	4.ee\	-cor-
.	.	.	16e/	.	.	.	.	.	.	.	.	.
8E\	.	.	16c/	.	.	.	.	.	.	.	.	.
.	.	.	16e/	.	.	.	.	.	.	.	.	.
8E\	.	.	16c/	.	8r	.	.	.	.	.	.	.
.	.	.	16e/	.	.	.	.	.	.	.	.	.
8E\J	.	.	16c/	.	8g/L	.	8c\	-di-	8g\	-dia	8ee\	-di-
.	.	.	16e/	.	.	.	.	.	.	.	.	.
*Xtremolo	*	*	*	*	*	*	*	*	*	*	*	*
8C/L	.	.	16c/	.	8cc/	.	4c\	-a	4g\	.	4ee\	-a
.	.	.	16e/	.	.	.	.	.	.	.	.	.
8C/J	.	.	16c/	.	8ee/J	.	.	.	.	.	.	.
.	.	.	16e/JJ	.	.	.	.	.	.	.	.	.
=57	=57	=57	=57	=57	=57	=57	=57	=57	=57	=57	=57	=57
8GG/L	.	.	16d/LL	.	(8ee\L	.	8d\	e-	8g\	e-	8ff\	e-
.	.	.	16f/	.	.	.	.	.	.	.	.	.
8GG/	.	.	16d/	.	8dd\)	.	8d\	-jus	8g\	-jus	8ff\	-jus
.	.	.	16f/	.	.	.	.	.	.	.	.	.
!	!	!	!	!	!	!	!	!	!LO:LB:g=original	!	!	!
8BB/	9_ 5_	.	16d/	.	8dd\|	.	4d\	a	4g\	a-	4ff\	a-
.	.	.	16f/	.	.	.	.	.	.	.	.	.
8BB/	.	.	16d/	.	8dd\J|	.	.	.	.	.	.	.
.	.	.	16f/JJ	.	.	.	.	.	.	.	.	.
8C/	3_	.	16e/LL	.	16cc\LL	.	4c\	pro-	4g\	-pro-	4ee\	-pro-
.	.	.	16g/	.	(16ee\	.	.	.	.	.	.	.
8C/J	.	.	16f/	.	16dd\	.	.	.	.	.	.	.
.	.	.	16e/JJ	.	16cc\JJ)	.	.	.	.	.	.	.
=58	=58	=58	=58	=58	=58	=58	=58	=58	=58	=58	=58	=58
!LO:TX:a:t=P:problem=mixed beam	!	!	!	!	!	!	!	!	!	!	!	!
8G\L	4_	.	8e/L	.	8cc\L	.	8c\	-ge-	8g\	-ge-	8ee\	-ge-
8G\	.	.	16d/L	.	16b\L	.	8c\	-ni-	8g\	-ni-	8ee\	-ni-
.	.	.	16e/JJ	.	16cc\JJ	.	.	.	.	.	.	.
!	!	!	!	!	!	!	!LO:LB:g=original	!	!	!	!	!
8GG/	3_	.	8d/L	.	16b\LL	.	4B\	-e	4g\	-e	4dd\	-e
.	.	.	.	.	16dd\	.	.	.	.	.	.	.
8GG/	.	.	8d/	.	16ee\	.	.	.	.	.	.	.
.	.	.	.	.	16ff\JJ	.	.	.	.	.	.	.
8B\	6_	.	8d/	.	16gg\LL	.	8d\	in	8g\	in	8dd\	in
.	.	.	.	.	16aa\	.	.	.	.	.	.	.
8B\J	.	.	8d/J	.	16gg\	.	8d\	pro-	8g\	pro-	8dd\	pro-
.	X	.	.	.	16ff\JJ	.	.	.	.	.	.	.
!	!	!	!	!	!	!	!	!	!	!	!LO:LB:g=original	!
=59	=59	=59	=59	=59	=59	=59	=59	=59	=59	=59	=59	=59
*tremolo	*	*	*	*	*	*	*	*	*	*	*	*
8c\L	.	.	16e/LL	.	16ee\LL	.	8c\	-ge-	4.g\	-ge-	4.ee\	-ge-
.	.	.	16g/	.	(16dd\	.	.	.	.	.	.	.
8c\	.	.	16e/	.	16ee\	.	4c\	.	.	.	.	.
.	.	.	16g/	.	16ff\JJ)	.	.	.	.	.	.	.
8c\	.	.	16e/	.	8.ee\L	.	.	.	.	.	.	.
.	.	.	16g/	.	.	.	.	.	.	.	.	.
8c\	.	.	16e/	.	.	.	8c\	-ni-	8g\	-ni-	8ee\	-ni-
.	.	.	16g/	.	16ccc\K	.	.	.	.	.	.	.
8c\	.	.	16e/	.	8.ee\	.	8c\	-es	8g\	-es	8ee\	-es
.	.	.	16g/	.	.	.	.	.	.	.	.	.
8c\J	.	.	16e/	.	.	.	8c\	ti-	8g\	ti-	8ee\	ti-
.	.	.	16g/JJ	.	16ccc\Jk	.	.	.	.	.	.	.
=60	=60	=60	=60	=60	=60	=60	=60	=60	=60	=60	=60	=60
!	!	!	!LO:TX:a:t=P:problem=mixed beam	!	!	!	!	!	!	!	!	!
8A\L	.	.	16e/LL	.	16ee\LL	.	4.c\	-men-	4.a\	-men-	4.ee\	-men-
.	.	.	16cc\	.	(16dd\	.	.	.	.	.	.	.
8A\	.	.	16e/	.	16ee\	.	.	.	.	.	.	.
.	.	.	16cc\	.	16ff\JJ)	.	.	.	.	.	.	.
8A\	.	.	16e/	.	8.ee\L	.	.	.	.	.	.	.
.	.	.	16cc\	.	.	.	.	.	.	.	.	.
8A\	.	.	16e/	.	.	.	8c\	-ti-	8a\	-ti-	8ee\	-ti-
.	.	.	16cc\	.	16ccc\K	.	.	.	.	.	.	.
8A\	.	.	16e/	.	8.ee\	.	4c\	-bus	4a\	-bus	4ee\	-bus
.	.	.	16cc\	.	.	.	.	.	.	.	.	.
8A\J	.	.	16e/	.	.	.	.	.	.	.	.	.
.	.	.	16cc\JJ	.	16ccc\Jk	.	.	.	.	.	.	.
*Xtremolo	*	*	*Xtremolo	*	*	*	*	*	*	*	*	*
=61	=61	=61	=61	=61	=61	=61	=61	=61	=61	=61	=61	=61
!LO:TX:a:t=P:problem=mixed beam	!	!	!	!	!	!	!	!	!	!	!	!
8F\L	6_	.	16dd\LL	.	8aa\L	.	4d\	e-	4a\	e-	4ff\	e-
.	.	.	16ff\	.	.	.	.	.	.	.	.	.
8F\	.	.	16ee\	.	16gg\L	.	.	.	.	.	.	.
.	.	.	16dd\JJ	.	16ff\JJ	.	.	.	.	.	.	.
!	!	!	!	!	!LO:LB:g=original	!	!	!	!	!	!	!
8G\	4_	.	4cc\	.	4ee\	.	4c\	.	2g\	.	4ee\	.
8G\	.	.	.	.	.	.	.	.	.	.	.	.
8GG/	3_	.	4b\	.	4dd\	.	4B\	.	.	.	4dd\	.
8GG/J	.	.	.	.	.	.	.	.	.	.	.	.
.	X	.	.	.	.	.	.	.	.	.	.	.
!	!	!	!LO:LB:g=original	!	!	!	!	!	!	!	!	!
=62	=62	=62	=62	=62	=62	=62	=62	=62	=62	=62	=62	=62
!LO:TX:a:t=Solo	!	!	!	!	!	!	!	!	!	!	!	!
4C/	.	.	8.cc\L	.	8.ee\L	.	4c\	-um	4g\	-um	4ee\	-um
.	.	.	16dd\Jk	.	16ff\Jk	.	.	.	.	.	.	.
4C/	.	.	16ff\LL	.	16aa\LL	.	4r	.	4r	.	4r	.
.	.	.	16ee\	.	16gg\	.	.	.	.	.	.	.
.	.	.	16dd\	.	16ff\	.	.	.	.	.	.	.
.	.	.	16ee\JJ	.	16gg\JJ	.	.	.	.	.	.	.
8r	.	.	8cc\L	.	16ff\LL	.	4r	.	4r	.	4r	.
.	.	.	.	.	16ee\	.	.	.	.	.	.	.
8E\	6	.	8g\J	.	16dd\	.	.	.	.	.	.	.
!	!	!	!	!	!	!	!	!	!LO:TX:b:t=vertatur	!	!	!
.	.	.	.	.	16cc\JJ	.	.	.	.	.	.	.
!LO:LB:g=original	!	!	!	!	!	!	!	!	!LO:PB:g=original	!	!	!
=63	=63	=63	=63	=63	=63	=63	=63	=63	=63	=63	=63	=63
!	!	!	!	!	!	!	!LO:TX:a:t=8	!	!LO:TX:a:t=1	!	!LO:TX:a:t=8	!
!	!	!	!	!	!	!	!LO:N:vis=00	!	!	!	!LO:N:vis=00	!
4F\	6	.	8a/L	.	(16dd\LL	.	0.r	.	2.r	.	0.r	.
.	.	.	.	.	16ff\	.	.	.	.	.	.	.
.	.	.	8f/	.	16ee\	.	.	.	.	.	.	.
.	.	.	.	.	16dd\JJ)	.	.	.	.	.	.	.
4G\	4	.	8e/	.	8cc\L	.	.	.	.	.	.	.
.	.	.	8g/	.	8ee\J	.	.	.	.	.	.	.
4GG/	3	.	8f/	.	8g/L	.	.	.	.	.	.	.
.	.	.	8d/J	.	8b/J	.	.	.	.	.	.	.
=64	=64	=64	=64	=64	=64	=64	=64	=64	=64	=64	=64	=64
!	!	!LO:DY:a:t=Piano	!	!	!	!	!	!	!	!	!	!
4C/	.	p	4e/	.	4cc\	.	.	.	8r	.	.	.
!	!	!	!	!	!	!	!	!	!LO:TX:a:t=solo.	!	!	!
.	.	.	.	.	.	.	.	.	8c\	Fe-	.	.
4C/	.	.	4e/	.	4cc\	.	.	.	8e\	-cit	.	.
.	.	.	.	.	.	.	.	.	8c\	.	.	.
4r	.	.	4r	.	4r	.	.	.	8e\	po-	.	.
.	.	.	.	.	.	.	.	.	8g\	.	.	.
=65	=65	=65	=65	=65	=65	=65	=65	=65	=65	=65	=65	=65
!	!	!	!	!LO:DY:t=p.	!	!	!	!	!	!	!	!
8r	.	.	8r	p	8r	.	.	.	8cc\	-ten-	.	.
!	!	!	!	!	!	!LO:DY:a:t=pia=	!	!	!	!	!	!
16C/LL	.	.	16c/LL	.	16c/LL	p	.	.	8d\	-ti-	.	.
16BB/JJ	.	.	16B/JJ	.	16B/JJ	.	.	.	.	.	.	.
8C/L	.	.	8c'/L	.	8c/L	.	.	.	4c/	-am	.	.
8E/	.	.	8e'/	.	8e/	.	.	.	.	.	.	.
8C/	.	.	8c'/	.	8c/	.	.	.	8r	.	.	.
8E/J	.	.	8e'/J	.	8e/J	.	.	.	8e\	in	.	.
=66	=66	=66	=66	=66	=66	=66	=66	=66	=66	=66	=66	=66
8F\L|	.	.	8f'/L	.	8f/L|	.	.	.	8f\	bra-	.	.
8E\|	.	.	8e'/	.	8e/|	.	.	.	8e\	.	.	.
8D'\	.	.	8d'/	.	8d'/	.	.	.	8d\	.	.	.
8E'\	.	.	8e'/	.	8e'/	.	.	.	8e\	.	.	.
8F'\	.	.	8f'/	.	8f'/	.	.	.	8f\	-chi-	.	.
8G'\J	.	.	8g'/J	.	8g'/J	.	.	.	8g#X\	-o-	.	.
!	!	!	!	!	!	!	!	!	!LO:LB:g=original	!	!	!
=67	=67	=67	=67	=67	=67	=67	=67	=67	=67	=67	=67	=67
!	!	!	!	!	!	!	!LO:N:vis=00	!	!	!	!LO:N:vis=00	!
8E'\L	.	.	(8e/L	.	8e/L	.	0.r	.	8e\L	Su-	0.r	.
8D'\	.	.	8d/J)	.	8d/J	.	.	.	8d\J	.	.	.
8C'\	.	.	4c/	.	4c/	.	.	.	4c\	-o	.	.
8C'\J	.	.	.	.	.	.	.	.	.	.	.	.
8E\L	6_	.	8g/L	.	4cc\	.	.	.	4cc\	di-	.	.
8F\J	.	.	8a/J	.	.	.	.	.	.	.	.	.
.	X	.	.	.	.	.	.	.	.	.	.	.
!	!	!	!	!	!LO:PB:g=original	!	!	!	!	!	!	!
=68	=68	=68	=68	=68	=68	=68	=68	=68	=68	=68	=68	=68
4G\	.	.	4.b/	.	4.dd\	.	.	.	8.b\L	-sper-	.	.
.	.	.	.	.	.	.	.	.	32dd\LL	.	.	.
.	.	.	.	.	.	.	.	.	32cc\JJJ	.	.	.
!LO:TX:a:t=P:problem=mixed beam	!	!	!	!	!	!	!	!	!	!	!	!
8GG/L	.	.	.	.	.	.	.	.	8b\	-sit	.	.
8G'>\	.	.	8g/L	.	8g/L	.	.	.	8g\	Su-	.	.
8A'>\	.	.	8a/	.	8a/	.	.	.	8a\	-per-	.	.
8B'>\J	.	.	8b/J	.	8b/J	.	.	.	8b\	-bos	.	.
=69	=69	=69	=69	=69	=69	=69	=69	=69	=69	=69	=69	=69
8c'\L	.	.	8cc'/L	.	8cc'/L	.	.	.	8cc\	men-	.	.
8B'\	.	.	8b'/	.	8b'/	.	.	.	8b\	-te	.	.
8A'\	.	.	8a'/	.	8a'/	.	.	.	8a\L	Cor-	.	.
8G'\	.	.	8g'/	.	8g'/	.	.	.	8g\J	.	.	.
8F'\	.	.	8f'/	.	8f'/	.	.	.	8f\L	.	.	.
8E'\J	.	.	8e'/J	.	8e'/J	.	.	.	8e\J	.	.	.
!	!	!	!LO:LB:g=original	!	!	!	!	!	!	!	!	!
=70	=70	=70	=70	=70	=70	=70	=70	=70	=70	=70	=70	=70
!	!	!	!	!	!LO:TX:a:t=P:problem=mixed beam	!	!	!	!	!	!	!
4F\	.	.	8d'/L	.	8f/L	.	.	.	8f\	.	.	.
.	.	.	8f'/	.	8dd\J	.	.	.	16e\LL	-dis	.	.
.	.	.	.	.	.	.	.	.	16f\JJ	.	.	.
4G\	4	.	8e'/	.	8cc\L	.	.	.	4g\	Su-	.	.
.	.	.	8g'/	.	8ee\	.	.	.	.	.	.	.
4GG/	3	.	8f'/	.	8dd\	.	.	.	4G/	-i	.	.
.	.	.	8d'/J	.	8b\J	.	.	.	.	.	.	.
!LO:LB:g=original	!	!	!	!	!	!	!	!	!LO:LB:g=original	!	!	!
=71	=71	=71	=71	=71	=71	=71	=71	=71	=71	=71	=71	=71
*	*	*	*tremolo	*	*	*	*	*	*	*	*	*
!LO:TX:a:t=Tutti	!	!	!	!	!	!LO:DY:t=for.	!	!	!	!	!	!
8C/L	.	.	16e/LL	f	16cc\LL	f	8r	.	8r	.	8r	.
.	.	.	16g/	.	16dd\	.	.	.	.	.	.	.
!	!	!	!	!	!	!	!	!	!LO:TX:a:t=Tutti	!	!	!
8C/	.	.	16e/	.	16cc\	.	8c\	De-	8g\	De-	8ee\	De-
.	.	.	16g/	.	16b\JJ	.	.	.	.	.	.	.
8E/	.	.	16e/	.	8cc\L	.	8c\	-po-	8g\	-po-	8ee\	-po-
.	.	.	16g/	.	.	.	.	.	.	.	.	.
!LO:TX:b:t=P:problem=cyfrowanie na dole	!	!	!	!	!	!	!	!	!	!	!	!
8E/	6_	.	16e/	.	8cc\J	.	8c\	-su-	8g\	-su-	8ee\	-su-
.	.	.	16g/JJ	.	.	.	.	.	.	.	.	.
*	*	*	*Xtremolo	*	*	*	*	*	*	*	*	*
!	!	!	!	!	!	!	!LO:LB:g=original	!	!	!	!	!
8G/	.	.	16d/LL	.	(8.dd\L	.	8B\	-it	8g\	-it	8dd\	-it
.	X	.	16f/	.	.	.	.	.	.	.	.	.
8G/J	.	.	16d/	.	.	.	8B\	po-	8g\	po-	8dd\	po-
.	.	.	16f/JJ	.	32cc\LL	.	.	.	.	.	.	.
.	.	.	.	.	32dd\JJJ)	.	.	.	.	.	.	.
=72	=72	=72	=72	=72	=72	=72	=72	=72	=72	=72	=72	=72
*	*	*	*tremolo	*	*	*	*	*	*	*	*	*
8C\L	3_	.	16e/LL	.	(16ee\LL	.	4c\	-ten-	4g\	-ten-	4ee\	-ten-
.	.	.	16g/	.	16ff\	.	.	.	.	.	.	.
8C\	.	.	16e/	.	16ee\	.	.	.	.	.	.	.
.	.	.	16g/	.	16dd\JJ)	.	.	.	.	.	.	.
8E\	6_	.	16e/	.	8cc\L|	.	4c\	-tes	4g\	-tes	4ee\	-tes
.	.	.	16g/	.	.	.	.	.	.	.	.	.
8E\	.	.	16e/	.	8cc\J|	.	.	.	.	.	.	.
.	.	.	16g/JJ	.	.	.	.	.	.	.	.	.
*	*	*	*Xtremolo	*	*	*	*	*	*	*	*	*
8G\	.	.	16d/LL	.	(8.dd\L	.	4B\	de	4g\	de	4dd\	de
.	X	.	16f/	.	.	.	.	.	.	.	.	.
8G\J	.	.	16d/	.	.	.	.	.	.	.	.	.
.	.	.	16f/JJ	.	32cc\LL	.	.	.	.	.	.	.
.	.	.	.	.	32dd\JJJ)	.	.	.	.	.	.	.
!	!	!	!	!	!	!	!	!	!	!	!LO:LB:g=original	!
=73	=73	=73	=73	=73	=73	=73	=73	=73	=73	=73	=73	=73
*	*	*	*tremolo	*	*	*	*	*	*	*	*	*
!LO:TX:a:t=P:problem=mixed beam	!	!	!	!	!	!	!	!	!	!	!	!
8c\L	.	.	16e/LL	.	(16ee\LL	.	4c\	Se-	4g\	Se-	4ee\	se-
.	.	.	16g/	.	16ff\	.	.	.	.	.	.	.
8c\	.	.	16e/	.	16ee\	.	.	.	.	.	.	.
.	.	.	16g/	.	16dd\JJ)	.	.	.	.	.	.	.
8C/	.	.	16e/	.	8cc\L|	.	8c\	-de	8g\	-de	8ee\	-de
.	.	.	16g/	.	.	.	.	.	.	.	.	.
8C/	.	.	16e/	.	8cc\J|	.	8c\	et	8g\	et	8ee\	et
.	.	.	16g/	.	.	.	.	.	.	.	.	.
8E/	6_	.	16e/	.	8cc\L|	.	8c\	e-	8g\	ex-	8ee\	ex-
.	.	.	16g/	.	.	.	.	.	.	.	.	.
8E/J	.	.	16e/	.	16b\L	.	8c\	-xul-	8g\	-ul-	8ee\	-ul-
.	X	.	16g/JJ	.	16cc\JJ	.	.	.	.	.	.	.
!	!	!	!	!	!LO:LB:g=original	!	!	!	!	!	!	!
=74	=74	=74	=74	=74	=74	=74	=74	=74	=74	=74	=74	=74
!LO:TX:a:t=P:problem=mixed beam	!	!	!	!	!	!	!	!	!	!	!	!
8F\L	6_	.	16f/LL	.	16dd\LL	.	8A/	-ta-	8f\	-ta-	8dd\	-ta-
.	.	.	16g/	.	16ee\	.	.	.	.	.	.	.
8F\	.	.	16a/	.	16ff\	.	8A/	-vit	8f\	-vit	8dd\	-vit
.	.	.	16f/JJ	.	16dd\JJ	.	.	.	.	.	.	.
8G\	4_	.	4e/	.	4cc\	.	4G/	hu-	4e\	hu-	4cc\	hu-
8G\	.	.	.	.	.	.	.	.	.	.	.	.
8GG/	3_	.	4d/	.	4b\	.	4G/	-mi-	4d\	-mi-	4b\	-mi-
8GG/J	.	.	.	.	.	.	.	.	.	.	.	.
.	X	.	.	.	.	.	.	.	.	.	.	.
=75	=75	=75	=75	=75	=75	=75	=75	=75	=75	=75	=75	=75
*tremolo	*	*	*	*	*	*	*	*	*	*	*	*
8C/L	.	.	16e/LL	.	8.cc\L	.	8G/	-les	8e\	-les	8cc\	-les
.	.	.	16g/	.	.	.	.	.	.	.	.	.
8C/	.	.	16e/	.	.	.	8c\	E-	8g\	E-	8ee\	E-
.	.	.	16g/	.	16dd\Jk	.	.	.	.	.	.	.
!	!	!	!	!	!	!	!	!	!LO:LB:g=original	!	!	!
8C/	.	.	16e/	.	8ee\L|	.	4c\	-suri-	4g\	-su-	4ee\	-su-
.	.	.	16g/	.	.	.	.	.	.	.	.	.
8C/	.	.	16e/	.	8ee\J|	.	.	.	.	.	.	.
.	.	.	16g/	.	.	.	.	.	.	.	.	.
8C/	.	.	16e/	.	16ff\LL	.	4c\	-en-	4g\	-ri-	4ee\	-ri-
.	.	.	16g/	.	16ee\	.	.	.	.	.	.	.
8C/J	.	.	16e/	.	16dd\	.	.	.	.	.	.	.
.	.	.	16g/JJ	.	16ee\JJ	.	.	.	.	.	.	.
=76	=76	=76	=76	=76	=76	=76	=76	=76	=76	=76	=76	=76
8C/L	6 4	.	16f/LL	.	8ff\L	.	4c\	.	4a\	-en-	4ff\	-en-
.	.	.	16a/	.	.	.	.	.	.	.	.	.
8C/	.	.	16f/	.	8cc\	.	.	.	.	.	.	.
.	.	.	16a/	.	.	.	.	.	.	.	.	.
8C/	.	.	16f/	.	8ff\	.	4c\	-tes	4a\	-tes	4ff\	-tes
.	.	.	16a/	.	.	.	.	.	.	.	.	.
8C/	.	.	16f/	.	8cc\J	.	.	.	.	.	.	.
.	.	.	16a/	.	.	.	.	.	.	.	.	.
8C/	.	.	16f/	.	8aa\L	.	4c\	im-	4a\	im-	4ff\	in
.	.	.	16a/	.	.	.	.	.	.	.	.	.
8C/J	.	.	16f/	.	16gg\L	.	.	.	.	.	.	.
.	.	.	16a/JJ	.	16ff\JJ	.	.	.	.	.	.	.
!	!	!	!	!	!	!	!LO:LB:g=original	!	!	!	!	!
=77	=77	=77	=77	=77	=77	=77	=77	=77	=77	=77	=77	=77
8C/L	3	.	16e/LL	.	8.ee\L	.	2c\	-ple-	2g\	-ple-	2ee\	ple-
.	.	.	16g/	.	.	.	.	.	.	.	.	.
8C/	.	.	16e/	.	.	.	.	.	.	.	.	.
.	.	.	16g/	.	(32cc\LL	.	.	.	.	.	.	.
.	.	.	.	.	32dd\JJJ)	.	.	.	.	.	.	.
8C/	.	.	16e/	.	8ee\L|	.	.	.	.	.	.	.
.	.	.	16g/	.	.	.	.	.	.	.	.	.
8C/	.	.	16e/	.	8ee\J|	.	.	.	.	.	.	.
.	.	.	16g/	.	.	.	.	.	.	.	.	.
8C/	.	.	16e/	.	16ff\LL	.	4c\	-vit	4g\	-vit	4ee\	-vit
.	.	.	16g/	.	16ee\	.	.	.	.	.	.	.
8C/J	.	.	16e/	.	16dd\	.	.	.	.	.	.	.
.	.	.	16g/JJ	.	16ee\JJ	.	.	.	.	.	.	.
=78	=78	=78	=78	=78	=78	=78	=78	=78	=78	=78	=78	=78
8C/L	6 4	.	16f/LL	.	8ff\L	.	4c\	bo-	4a\	bo-	4ff\	bo-
.	.	.	16a/	.	.	.	.	.	.	.	.	.
8C/	.	.	16f/	.	8cc\	.	.	.	.	.	.	.
.	.	.	16a/	.	.	.	.	.	.	.	.	.
8C/	.	.	16f/	.	8ff\	.	4c\	-nis	4a\	-nis	4ff\	-nis
.	.	.	16a/	.	.	.	.	.	.	.	.	.
8C/	.	.	16f/	.	8cc\J	.	.	.	.	.	.	.
.	.	.	16a/	.	.	.	.	.	.	.	.	.
8C/	.	.	16f/	.	8aa\L	.	4c\	et	4a\	et	4ff\	et
.	.	.	16a/	.	.	.	.	.	.	.	.	.
8C/J	.	.	16f/	.	16gg\L	.	.	.	.	.	.	.
.	.	.	16a/JJ	.	16ff\JJ	.	.	.	.	.	.	.
*Xtremolo	*	*	*	*	*	*	*	*	*	*	*	*
!	!	!	!	!	!	!	!	!	!	!	!LO:LB:g=original	!
=79	=79	=79	=79	=79	=79	=79	=79	=79	=79	=79	=79	=79
8C\L	3_	.	16e/LL	.	16ee\LL	.	8c\	di-	8g\	di-	8ee\	di-
.	.	.	16g/	.	16ff\	.	.	.	.	.	.	.
8C\	.	.	16e/	.	16ee\	.	8c\	-vi-	8g\	-vi-	8ee\	-vi-
.	.	.	16g/	.	16dd\JJ	.	.	.	.	.	.	.
8E\	6_	.	16e/	.	8cc\L	.	4c\	-tes	4g\	-tes	4ee\	-tes
.	.	.	16g/	.	.	.	.	.	.	.	.	.
8E\	.	.	16e/	.	8cc\J	.	.	.	.	.	.	.
.	.	.	16g/JJ	.	.	.	.	.	.	.	.	.
.	X	.	.	.	8qqcc/	.	.	.	.	.	.	.
!	!	!	!LO:LB:g=original	!	!	!	!	!	!	!	!	!
*	*	*	*Xtremolo	*	*	*	*	*	*	*	*	*
8G\	.	.	16d/LL	.	8.dd\L	.	4B\	di-	4g\	di-	4dd\	di-
.	.	.	16f/	.	.	.	.	.	.	.	.	.
8G\J	.	.	16d/	.	.	.	.	.	.	.	.	.
.	.	.	16f/JJ	.	(32cc\LL	.	.	.	.	.	.	.
.	.	.	.	.	32dd\JJJ)	.	.	.	.	.	.	.
!	!	!	!	!	!LO:LB:g=original	!	!	!	!	!	!	!
=80	=80	=80	=80	=80	=80	=80	=80	=80	=80	=80	=80	=80
*	*	*	*tremolo	*	*	*	*	*	*	*	*	*
8c\L	.	.	16e/LL	.	(8.ee\L	.	4c\	-mi-	4g\	-mi-	4ee\	-mi-
.	.	.	16g/	.	.	.	.	.	.	.	.	.
8c\J	.	.	16e/	.	.	.	.	.	.	.	.	.
.	.	.	16g/	.	16dd\Jk)	.	.	.	.	.	.	.
!LO:LB:g=original	!	!	!	!	!	!	!	!	!	!	!	!
8C/L	.	.	16e/	.	8cc\L	.	4c\	-sit	4g\	-sit	4ee\	-sit
.	.	.	16g/	.	.	.	.	.	.	.	.	.
8C/J	.	.	16e/	.	16dd\L	.	.	.	.	.	.	.
.	.	.	16g/	.	16ee\JJ	.	.	.	.	.	.	.
8E\L	6_	.	16e/	.	(16dd\LL	.	4c\	i-	4g\	i-	4ee\	i-
.	.	.	16g/	.	16cc\	.	.	.	.	.	.	.
8E\J	.	.	16e/	.	16b\	.	.	.	.	.	.	.
.	X	.	16g/JJ	.	16cc\JJ)	.	.	.	.	.	.	.
*	*	*	*Xtremolo	*	*	*	*	*	*	*	*	*
=81	=81	=81	=81	=81	=81	=81	=81	=81	=81	=81	=81	=81
!LO:TX:a:t=P:problem=mixed beam	!	!	!	!	!	!	!	!	!	!	!	!
8F\L	6_	.	8a/L	.	(16dd\LL	.	4A/	-na-	4f\	-na-	4dd\	-na-
.	.	.	.	.	16ee\	.	.	.	.	.	.	.
8F\	.	.	8f/J	.	16ff\	.	.	.	.	.	.	.
.	.	.	.	.	16dd\JJ)	.	.	.	.	.	.	.
8G\	4_	.	4e/	.	4cc\	.	2G/	.	4e\	.	4cc\	.
8G\	.	.	.	.	.	.	.	.	.	.	.	.
8GG/	3_	.	4d/	.	4b\	.	.	.	4d\	.	4b\	.
8GG/J	.	.	.	.	.	.	.	.	.	.	.	.
.	X	.	.	.	.	.	.	.	.	.	.	.
!	!	!	!	!	!	!	!	!	!LO:LB:g=original	!	!	!
=82	=82	=82	=82	=82	=82	=82	=82	=82	=82	=82	=82	=82
!	!	!	!LO:TX:a:t=P:problem=mixed beam	!	!	!	!	!	!	!	!	!
4C/	.	.	8e/L	.	8cc\L	.	4G/	-nes	4e\	-nes	4cc\	-nes
.	.	.	16ee\L	.	16ee\L	.	.	.	.	.	.	.
.	.	.	16dd\JJ	.	16dd\JJ	.	.	.	.	.	.	.
!LO:TX:a:t=Solo	!	!	!	!	!	!	!	!	!	!	!	!
4r	.	.	8cc/L	.	8cc/L	.	4r	.	4r	.	4r	.
.	.	.	8g/	.	8g/	.	.	.	.	.	.	.
4r	.	.	8e/	.	8e/	.	4r	.	4r	.	4r	.
.	.	.	8g/J	.	8g/J	.	.	.	.	.	.	.
=83	=83	=83	=83	=83	=83	=83	=83	=83	=83	=83	=83	=83
!	!	!	!	!	!	!	!LO:TX:a:t=Solo	!	!LO:TX:a:t=Solo	!	!LO:TX:a:t=9.	!
!	!	!	!	!	!	!	!	!	!	!	!LO:N:vis=00	!
4C/	.	.	4e/	.	4e/	.	4c\	Sus-	4e\	Sus-	0.r	.
4C/	.	.	4e/	.	4e/	.	8c\L	-ce-	8e\L	-ce-	.	.
.	.	.	.	.	.	.	8B\J	.	8d\J	.	.	.
!	!	!	!LO:TX:b:B:t=vertatur\n citiſsimo	!	!	!	!	!	!	!	!	!
4r	.	.	4r	.	4r	.	8c\L	-pit	8e\L	-pit	.	.
.	.	.	.	.	.	.	8d\J	.	8f\J	.	.	.
!	!	!	!LO:PB:g=original	!	!	!	!LO:LB:g=original	!	!	!	!	!
=84	=84	=84	=84	=84	=84	=84	=84	=84	=84	=84	=84	=84
!	!	!	!	!	!	!LO:DY:t=p.	!	!	!	!	!	!
8r	.	.	8r	.	8r	p	2e\	I-	2g\	I-	.	.
16C/LL	.	.	16e/LL	pp	16e/LL	.	.	.	.	.	.	.
16BB/JJ	.	.	16d/JJ	.	16d/JJ	.	.	.	.	.	.	.
8C/L	.	.	8e'/L	.	8e/L	.	.	.	.	.	.	.
8E/	.	.	8g'/	.	8g/	.	.	.	.	.	.	.
8C/	.	.	8e'/	.	8e/	.	16f\LL	.	16a\LL	.	.	.
.	.	.	.	.	.	.	16e\JJ	.	16g\JJ	.	.	.
8E/J	.	.	8g'/J	.	8g/J	.	16d\LL	-sra-	16f\LL	-sra-	.	.
.	.	.	.	.	.	.	16c\JJ	.	16e\JJ	.	.	.
=85	=85	=85	=85	=85	=85	=85	=85	=85	=85	=85	=85	=85
4G\	.	.	8f/L	.	8f/L	.	4B\	-el	4d\	-el	.	.
.	.	.	8d/J	.	8d/J	.	.	.	.	.	.	.
4GG/	.	.	4d/	.	4d/	.	8B\L	pu-	8d\L	Pu-	.	.
.	.	.	.	.	.	.	8A\J	.	8c\J	.	.	.
4r	.	.	4r	.	4r	.	8B\	-e-	8d\	-e-	.	.
.	.	.	.	.	.	.	8c\	-rum	8e\	-rum	.	.
=86	=86	=86	=86	=86	=86	=86	=86	=86	=86	=86	=86	=86
8r	.	.	8r	.	8r	.	4.d\	Su-	4.f\	Su-	.	.
16G\LL	.	.	(16B/LL	.	16B/LL	.	.	.	.	.	.	.
16F#X\JJ	.	.	16A/JJ)	.	16A/JJ	.	.	.	.	.	.	.
!	!	!	!	!	!LO:LB:g=original	!	!	!	!	!	!	!
8G\L	.	.	8B/L	.	8B/L	.	.	.	.	.	.	.
8B\	.	.	8d/	.	8d/	.	16c\LL	.	16e\LL	.	.	.
.	.	.	.	.	.	.	16d\JJ	.	16f\JJ	.	.	.
8G\	.	.	8B/	.	8B/	.	8e\L	.	8g\L	.	.	.
8B\J	.	.	8d/J	.	8d/J	.	8d\J	.	8f\J	.	.	.
=87	=87	=87	=87	=87	=87	=87	=87	=87	=87	=87	=87	=87
!	!	!	!	!	!	!	!	!	!	!	!LO:N:vis=00	!
4c\	.	.	4c/	.	4e/	.	4c\	-um	4e\	-um	0.r	.
4C/	.	.	4c/	.	4e/	.	8c\L	re-	8e\L	re-	.	.
.	.	.	.	.	.	.	8B\J	.	8d\J	.	.	.
!	!	!	!	!	!	!	!	!	!LO:LB:g=original	!	!	!
4r	.	.	4r	.	4r	.	8c\L	-cor-	8e\L	-cor-	.	.
.	.	.	.	.	.	.	8d\J	.	8f\J	.	.	.
!LO:LB:g=original	!	!	!	!	!	!	!	!	!	!	!	!
=88	=88	=88	=88	=88	=88	=88	=88	=88	=88	=88	=88	=88
4G\	4	.	(8.e/L	.	(8.g/L	.	8.e\L	-da-	8.g\L	-da-	.	.
.	3	.	16d/Jk)	.	16f/Jk	.	16d\Jk	.	16f\Jk	.	.	.
4C\	.	.	4c/	.	4e/)	.	8c\	-tus	8e\	-tus	.	.
.	.	.	.	.	.	.	8c\	mi-	8e\	mi-	.	.
4r	.	.	4r	.	4r	.	16c\LL	-se-	16e\LL	-se-	.	.
.	.	.	.	.	.	.	16B\JJ	.	16d\JJ	.	.	.
.	.	.	.	.	.	.	16c\LL	-ri-	16e\LL	-ri-	.	.
.	.	.	.	.	.	.	16d\JJ	.	16f\JJ	.	.	.
!	!	!	!	!	!	!	!LO:LB:g=original	!	!	!	!	!
=89	=89	=89	=89	=89	=89	=89	=89	=89	=89	=89	=89	=89
4G\	4	.	(8.e/L	.	(8.g/L	.	8.e\	-cor-	8.g\	-cor-	.	.
.	3	.	16d/Jk)	.	16f/Jk	.	16d\	-diae	16f\	-di-	.	.
4C/	.	.	4c/	.	4e/)	.	8c\	.	8e\	-ae	.	.
.	.	.	.	.	.	.	8c\	mi-	8e\	mi-	.	.
4r	.	.	4r	.	4r	.	16c\LL	-se-	16e\LL	-se-	.	.
.	.	.	.	.	.	.	16B\JJ	.	16d\JJ	.	.	.
.	.	.	.	.	.	.	16c\LL	-ri-	16e\LL	-ri-	.	.
.	.	.	.	.	.	.	16d\JJ	.	16f\JJ	.	.	.
=90	=90	=90	=90	=90	=90	=90	=90	=90	=90	=90	=90	=90
4c\	.	.	8e/L	.	8g/L	.	8e\L	-cor-	8g\L	-cor-	.	.
.	.	.	16d/L	.	16f/L	.	16d\L	.	16f\L	.	.	.
.	.	.	16e/JJ	.	16g/JJ	.	16e\JJ	.	16g\JJ	.	.	.
4F\	6	.	8f/L	.	8a/L	.	8f\	-di-	8a\	-di-	.	.
.	.	.	8d/	.	8f/	.	8d\	-ae	8f\	-ae	.	.
4G\	.	.	8c/	.	8e/	.	8c\L	Su-	8e\	Su-	.	.
.	.	.	8B/J	.	8d/J	.	8B\J	.	8d\	.	.	.
!	!	!	!LO:LB:g=original	!	!	!	!	!	!LO:LB:g=original	!	!	!
=91	=91	=91	=91	=91	=91	=91	=91	=91	=91	=91	=91	=91
!	!	!	!	!	!	!	!LO:SIC:l:s=ae:v	!	!	!	!	!
4C/	.	.	8c/L	.	8e'/L	.	4c\	-e	4e\	-ae	2.r	.
!	!	!	!	!	!	!LO:HP:a	!	!	!	!	!	!
.	.	.	8c/	.	8e'/	<	.	.	.	.	.	.
!LO:TX:a:B:t=Tutti	!	!	!	!	!	!	!	!	!	!	!	!
4r	.	.	8d/	<	8f'/	.	4r	.	4r	.	.	.
.	.	.	8e/	.	8g'/	.	.	.	.	.	.	.
4r	.	.	8f/	.	8a'/	.	4r	.	4r	.	.	.
.	.	.	8d/J	.	8b'/J	.	.	.	.	.	.	.
=92	=92	=92	=92	=92	=92	=92	=92	=92	=92	=92	=92	=92
!	!	!	!	!LO:DY:t=fortiſsimo_	!	!	!	!	!LO:TX:b:t=Tutti	!	!	!
4c\|	.	.	4cc 4e/	ff	16cc\LL	.	4c\	Si-	4cc\	Si-	4cc\	Si-
.	.	.	.	.	(16b\	.	.	.	.	.	.	.
.	.	.	.	.	16cc\	.	.	.	.	.	.	.
.	.	.	.	.	16dd\JJ)	.	.	.	.	.	.	.
!	!	!	!LO:TX:a:t=P:problem=mixed beam	!	!LO:TX:a:t=P:problem=mixed beam	!LO:DY:t=for	!	!	!	!	!	!
4e\|	.	.	8ee\L	.	8ee\L	f	4e\	-cut	4ee\	-cut	4ee\	-cut
.	.	.	8ee\	.	8ee\	.	.	.	.	.	.	.
4G\|	.	.	8g/	.	8g/	.	4G/	lo-	4g\	lo-	4g\	lo-
.	.	.	8g/J	.	8g/J	.	.	.	.	.	.	.
!	!	!	!	!	!LO:LB:g=original	!	!	!	!	!	!	!
=93	=93	=93	=93	=93	=93	=93	=93	=93	=93	=93	=93	=93
4A\|	.	.	16a/LL	.	16a/LL	.	8A\	-cu-	8a\	-cu-	8a\	-cu-
.	.	.	16g/	.	(16g/	.	.	.	.	.	.	.
.	.	.	16a/	.	16a/	.	8A\	-tus	8a\	-tus	8a\	-tus
.	.	.	16b/JJ	.	16b/JJ)	.	.	.	.	.	.	.
!	!	!	!LO:TX:a:t=P:problem=mixed beam	!	!LO:TX:a:t=P:problem=mixed beam	!	!	!	!	!	!	!
4c\|	.	.	8cc\L	.	8cc\L|	.	4c\	eſt	4cc\	eſt	4cc\	eſt
.	.	.	8cc\	.	8cc\|	.	.	.	.	.	.	.
4E\|	.	.	8e/	.	8e/	.	4E/	ad	4e\	ad	4e/	ad
.	.	.	8e/J	.	8e/J	.	.	.	.	.	.	.
!	!	!	!	!	!	!	!LO:LB:g=original	!	!	!	!	!
=94	=94	=94	=94	=94	=94	=94	=94	=94	=94	=94	=94	=94
!	!	!	!	!	!	!LO:DY:t=p.	!	!	!	!	!	!
4F\|	.	.	8f/L	.	8f/L	p	8F/	Pa-	8f\	Pa-	8f/	Pa-
.	.	.	8f/	.	8f/	.	8F/	-tres	8f\	-tres	8f/	-tres
!	!	!	!	!	!	!	!	!	!	!	!LO:LB:g=original	!
4D\|	.	.	8d/	.	8d/	.	4D/	nos-	4d\	nos-	4d/	nos-
.	.	.	8d/	.	8d/	.	.	.	.	.	.	.
4G\|	.	.	8g/	.	8g/	.	4G/	-tros	4g\	-tros	4g/	-tros
.	.	.	8g/J	.	8g/J	.	.	.	.	.	.	.
=95	=95	=95	=95	=95	=95	=95	=95	=95	=95	=95	=95	=95
4E\|	.	.	16e/LL	.	16e/LL	.	8E/	A-	8e\	Ab-	8e/	A-
.	.	.	16f/	.	16f/	.	.	.	.	.	.	.
.	.	.	16e/	.	16e/	.	8E/	-bra-	8e\	-ra-	8e/	-bra-
.	.	.	16d/JJ	.	16d/JJ	.	.	.	.	.	.	.
4C/|	.	.	8c/L	.	8c/L	.	4C/	-ham	4c\	-ham	4c/	-ham
.	.	.	8c/	.	8e/	.	.	.	.	.	.	.
4r	.	.	8e/	.	8g/	.	4r	.	4r	.	4r	.
.	.	.	8g/J	.	8cc/J	.	.	.	.	.	.	.
=96	=96	=96	=96	=96	=96	=96	=96	=96	=96	=96	=96	=96
*tremolo	*	*	*tremolo	*	*	*	*	*	*	*	*	*
8c\L	.	.	16e/LL	.	(8.ee\L	.	4c\	et	4g\	et	4ee\	et
.	.	.	16g/	.	.	.	.	.	.	.	.	.
8c\	.	.	16e/	.	.	.	.	.	.	.	.	.
.	.	.	16g/	.	32gg\LL	.	.	.	.	.	.	.
.	.	.	.	.	32ff\JJJ)	.	.	.	.	.	.	.
8c\	.	.	16e/	.	8ee\L	.	4c\	se-	4g\	se-	4ee\	se-
.	.	.	16g/	.	.	.	.	.	.	.	.	.
8c\J	.	.	16e/	.	8gg\	.	.	.	.	.	.	.
.	.	.	16g/JJ	.	.	.	.	.	.	.	.	.
!	!	!	!	!	!	!	!	!	!LO:LB:g=original	!	!	!
*Xtremolo	*	*	*Xtremolo	*	*	*	*	*	*	*	*	*
8B\L	6_	.	16d/LL	.	8dd\	.	8d\	-mi-	8g\	-mi-	8dd\	-mi-
.	.	.	16g/	.	.	.	.	.	.	.	.	.
8B\J	.	.	16d/	.	8gg\J	.	8d\	-ni	8g\	-ni	8dd\	-ni
.	X	.	16g/JJ	.	.	.	.	.	.	.	.	.
!LO:LB:g=original	!	!	!	!	!	!	!	!	!	!	!	!
=97	=97	=97	=97	=97	=97	=97	=97	=97	=97	=97	=97	=97
*tremolo	*	*	*tremolo	*	*	*	*	*	*	*	*	*
8A\L	.	.	16c/LL	.	(8.cc\L	.	2c\	e-	2e\	e-	2cc\	e-
.	.	.	16e/	.	.	.	.	.	.	.	.	.
8A\	.	.	16c/	.	.	.	.	.	.	.	.	.
.	.	.	16e/	.	32ee\LL	.	.	.	.	.	.	.
.	.	.	.	.	32dd\JJJ)	.	.	.	.	.	.	.
8A\	.	.	16c/	.	8cc'\L	.	.	.	.	.	.	.
.	.	.	16e/	.	.	.	.	.	.	.	.	.
8A\J	.	.	16c/	.	8ee'\	.	.	.	.	.	.	.
.	.	.	16e/	.	.	.	.	.	.	.	.	.
*Xtremolo	*	*	*	*	*	*	*	*	*	*	*	*
8E\L	6_	.	16c/	.	8gg'\	.	4c\	-jus	4g\	-jus	4ee\	-jus
.	.	.	16e/	.	.	.	.	.	.	.	.	.
8E\J	.	.	16c/	.	8ccc'\J	.	.	.	.	.	.	.
.	X	.	16e/JJ	.	.	.	.	.	.	.	.	.
!	!	!	!LO:LB:g=original	!	!	!	!	!	!	!	!	!
=98	=98	=98	=98	=98	=98	=98	=98	=98	=98	=98	=98	=98
!LO:TX:a:t=P:problem=mixed beam	!	!	!LO:TX:a:t=P:problem=mixed beam	!	!	!	!	!	!	!	!	!
8F\L	6_	.	8d/L	.	8aa\L	.	4A/	in	4f\	in	4dd\	in
8F\	.	.	8dd\J	.	16gg\L	.	.	.	.	.	.	.
.	.	.	.	.	16ff\JJ	.	.	.	.	.	.	.
8G\	4_	.	4cc\	.	4ee\	.	4G/	Sae-	4e\	Sae-	4cc\	Sae-
8G\	.	.	.	.	.	.	.	.	.	.	.	.
8GG/	3_	.	4b\	.	4dd\	.	4G/	-cu-	4d\	-cu-	4b\	-cu-
8GG/J	.	.	.	.	.	.	.	.	.	.	.	.
.	X	.	.	.	.	.	.	.	.	.	.	.
=99	=99	=99	=99	=99	=99	=99	=99	=99	=99	=99	=99	=99
*tremolo	*	*	*	*	*	*	*	*	*	*	*	*
8C/L	.	.	8.cc\L	.	8.ee\L	.	4G/	-la	4e\	-la	4cc\	-la
8C/	.	.	.	.	.	.	.	.	.	.	.	.
.	.	.	16dd\Jk	.	16ff\Jk	.	.	.	.	.	.	.
!	!	!	!	!	!LO:LB:g=original	!	!	!	!	!	!	!
8C/	.	.	16ff\LL	.	16aa\LL	.	4r	.	4r	.	4r	.
.	.	.	16ee\	.	16gg\	.	.	.	.	.	.	.
8C/	.	.	16dd\	.	16ff\	.	.	.	.	.	.	.
.	.	.	16ee\JJ	.	16gg\JJ	.	.	.	.	.	.	.
8C/	.	.	8cc\L	.	16ff\LL	.	4r	.	4r	.	4r	.
.	.	.	.	.	16ee\	.	.	.	.	.	.	.
8C/J	.	.	8g\J	.	16dd\	.	.	.	.	.	.	.
.	.	.	.	.	16cc\JJ	.	.	.	.	.	.	.
=100	=100	=100	=100	=100	=100	=100	=100	=100	=100	=100	=100	=100
!	!	!	!	!	!	!	!LO:TX:a:t=1	!	!LO:TX:a:t=1	!	!LO:TX:a:t=8	!
!	!	!	!	!	!	!	!	!	!	!	!LO:N:vis=00	!
4F\	6	.	8a/L	.	16dd\LL	.	2.r	.	2.r	.	0.r	.
.	.	.	.	.	(16ff\	.	.	.	.	.	.	.
.	.	.	8f/	.	16ee\	.	.	.	.	.	.	.
.	.	.	.	.	16dd\JJ)	.	.	.	.	.	.	.
4G\	4	.	8e/	.	8cc\L	.	.	.	.	.	.	.
.	.	.	8g/	.	8ee\J	.	.	.	.	.	.	.
4GG/	3	.	8f/	.	8g/L	.	.	.	.	.	.	.
.	.	.	8d/J	.	8b/J	.	.	.	.	.	.	.
=101	=101	=101	=101	=101	=101	=101	=101	=101	=101	=101	=101	=101
!	!	!	!	!	!	!	!LO:TX:a:t=solo	!	!	!	!	!
!	!	!LO:DY:a:t=pia=	!	!	!	!	!LO:TX:a:t=1	!	!LO:TX:a:t=solo.	!	!	!
8C/L	.	p	4e/	.	4cc\	.	4.c\	Glo-	4.e\	Glo-	.	.
8BB/	.	.	.	.	.	.	.	.	.	.	.	.
8C/	.	.	4r	.	4r	.	.	.	.	.	.	.
8BB/	.	.	.	.	.	.	8d\	.	8f\	.	.	.
8C/	.	.	4r	.	4r	.	8e\	-ri-	8g\	.	.	.
8E/J	.	.	.	.	.	.	16d\LL	-a	16f\LL	-ri-	.	.
.	.	.	.	.	.	.	16c\JJ	.	16e\JJ	-a	.	.
!	!	!	!	!	!	!	!LO:LB:g=original	!	!	!	!	!
=102	=102	=102	=102	=102	=102	=102	=102	=102	=102	=102	=102	=102
!	!	!	!	!	!	!LO:DY:t=p.	!	!	!	!	!	!
4G\	.	.	8r	pp	8r	p	8c\L	Pa-	8e\L	Pa-	.	.
.	.	.	(16b\LL	.	(16dd\LL	.	8B\J	.	8d\J	.	.	.
.	.	.	16cc\JJ)	.	16ee\JJ)	.	.	.	.	.	.	.
4GG/	.	.	8dd\L	.	8ff\L	.	4B\	-tri	4d\	-tri	.	.
.	.	.	8ee\	.	8gg\	.	.	.	.	.	.	.
4r	.	.	8dd\	.	8ff\	.	4r	.	4r	.	.	.
.	.	.	8cc\J	.	8ee\J	.	.	.	.	.	.	.
=103	=103	=103	=103	=103	=103	=103	=103	=103	=103	=103	=103	=103
8GG/L	.	.	4b\	.	4dd\	.	(4.B\	Glo-	4.d\	glo-	.	.
8AA/	.	.	.	.	.	.	.	.	.	.	.	.
8BB/	.	.	4r	.	4r	.	.	.	.	.	.	.
8GG/	.	.	.	.	.	.	8c\)	.	8e\	.	.	.
!	!	!	!	!	!	!	!	!	!LO:LB:g=original	!	!	!
8AA/	.	.	4r	.	4r	.	16d\LL	-ri-	16f\LL	.	.	.
.	.	.	.	.	.	.	16f\JJ	.	16a\JJ	.	.	.
8BB/J	.	.	.	.	.	.	16e\LL	-a	16g\LL	-ri-	.	.
.	.	.	.	.	.	.	16d\JJ	.	16f\JJ	-a	.	.
=104	=104	=104	=104	=104	=104	=104	=104	=104	=104	=104	=104	=104
!	!	!	!	!	!	!	!	!	!	!	!LO:N:vis=00	!
4C/	.	.	8r	.	8r	.	8d\	Fi-	8f\L	Fi-	0.r	.
.	.	.	(16cc\LL	.	(16ee\LL	.	8c\	-li-	8e\J	-li-	.	.
.	.	.	16dd\JJ)	.	16ff\JJ)	.	.	.	.	.	.	.
4C/	.	.	8ee\L	.	8gg\L	.	4c\	-o	4e\	-o	.	.
.	.	.	8ff\	.	8aa\	.	.	.	.	.	.	.
4r	.	.	8ee\	.	8gg\	.	4r	.	4r	.	.	.
.	.	.	8dd\J	.	8ff\J	.	.	.	.	.	.	.
!	!	!	!LO:LB:g=original	!	!	!	!	!	!	!	!	!
=105	=105	=105	=105	=105	=105	=105	=105	=105	=105	=105	=105	=105
8C/L	.	.	4cc\	.	4ee\	.	4.c\	et	4.e\	et	.	.
8C/	.	.	.	.	.	.	.	.	.	.	.	.
8C/	.	.	4cc\	.	4ee\	.	.	.	.	.	.	.
8C/J	.	.	.	.	.	.	(16d\LL	.	16f\LL	.	.	.
.	.	.	.	.	.	.	16e\JJ)	.	16g\JJ	.	.	.
!LO:LB:g=original	!	!	!	!	!	!	!	!	!	!	!	!
*Xtremolo	*	*	*	*	*	*	*	*	*	*	*	*
8C/L	6 4	.	4r	.	4r	.	8f\	Spi-	8a\	.	.	.
8C/J	5 3	.	.	.	.	.	8e\	.	8g\	Spi-	.	.
!	!	!	!	!	!LO:LB:g=original	!	!	!	!	!	!	!
=106	=106	=106	=106	=106	=106	=106	=106	=106	=106	=106	=106	=106
8C/L	.	.	(4.ee\	.	4.gg\	.	4.e\	-ri-	4.g\	-ri-	.	.
8C/J	.	.	.	.	.	.	.	.	.	.	.	.
8G\L	6	.	.	.	.	.	.	.	.	.	.	.
8G#X\	5	.	8dd\)	.	8ff\	.	8d\	-tu-	8f\	-tu-	.	.
8A\	4_	.	8cc\L	.	8ee\L	.	4c\	-i	4e\	-i	.	.
8A\J	.	.	16b\L	.	16dd\L	.	.	.	.	.	.	.
.	X	.	16cc\JJ	.	16ee\JJ	.	.	.	.	.	.	.
=107	=107	=107	=107	=107	=107	=107	=107	=107	=107	=107	=107	=107
!LO:TX:a:t=P:problem=mixed beam	!	!	!	!	!	!	!	!	!	!	!	!
8F\L	6_	.	16dd\LL	.	16ff\LL	.	4d\	San-	4f\	San-	.	.
.	.	.	(16ee\	.	16gg\	.	.	.	.	.	.	.
8F\	.	.	16ff\	.	16aa\	.	.	.	.	.	.	.
.	.	.	16dd\JJ)	.	16ff\JJ	.	.	.	.	.	.	.
8G\	4_	.	4cc\	.	4ee\	.	4c\	.	4e\	.	.	.
8G\	.	.	.	.	.	.	.	.	.	.	.	.
8GG/	3_	.	4b\	.	4dd\	.	4B\	.	4d\	.	.	.
8GG/J	.	.	.	.	.	.	.	.	.	.	.	.
.	X	.	.	.	.	.	.	.	.	.	.	.
!	!	!	!	!	!	!	!LO:LB:g=original	!	!	!	!	!
=108	=108	=108	=108	=108	=108	=108	=108	=108	=108	=108	=108	=108
*tremolo	*	*	*	*	*	*	*	*	*	*	*	*
!LO:TX:a:t=Tutti	!	!	!	!	!	!LO:DY:t=for=	!	!	!LO:TX:a:t=Tutti	!	!	!
8C/L	.	.	16e/LL	f	4ee\	f	4c\	-cto	4e\	-cto	4r	.
.	.	.	16g/	.	.	.	.	.	.	.	.	.
8C/	.	.	16e/	.	.	.	.	.	.	.	.	.
.	.	.	16g/	.	.	.	.	.	.	.	.	.
8C/	.	.	16e/	.	8r	.	4c\	Si-	4g\	Si-	4ee\	Si-
.	.	.	16g/	.	.	.	.	.	.	.	.	.
8C/	.	.	16e/	.	8g/L	.	.	.	.	.	.	.
.	.	.	16g/	.	.	.	.	.	.	.	.	.
8C/	.	.	16e/	.	8cc/	.	4c\	-cut	4g\	-cut	4ee\	-cut
.	.	.	16g/	.	.	.	.	.	.	.	.	.
8C/J	.	.	16e/	.	8ee/J	.	.	.	.	.	.	.
.	.	.	16g/JJ	.	.	.	.	.	.	.	.	.
=109	=109	=109	=109	=109	=109	=109	=109	=109	=109	=109	=109	=109
8C/L	.	.	16e/LL	.	8gg\L	.	2c\	e-	2g\	e-	2ee\	e-
.	.	.	16g/	.	.	.	.	.	.	.	.	.
8C/	.	.	16e/	.	8ee\	.	.	.	.	.	.	.
.	.	.	16g/	.	.	.	.	.	.	.	.	.
8C/	.	.	16e/	.	8ccc\	.	.	.	.	.	.	.
.	.	.	16g/	.	.	.	.	.	.	.	.	.
8C/	.	.	16e/	.	8gg\	.	.	.	.	.	.	.
.	.	.	16g/	.	.	.	.	.	.	.	.	.
8C/	.	.	16e/	.	8ff\	.	4c\	-rat	4g\	-rat	4ee\	-rat
.	.	.	16g/	.	.	.	.	.	.	.	.	.
8C/J	.	.	16e/	.	8ee\J	.	.	.	.	.	.	.
.	.	.	16g/JJ	.	.	.	.	.	.	.	.	.
!	!	!	!	!	!	!	!	!	!LO:LB:g=original	!	!LO:LB:g=original	!
=110	=110	=110	=110	=110	=110	=110	=110	=110	=110	=110	=110	=110
8BB/L	6 5	.	16f/LL	.	4dd\	.	2d\	in	2g\	in	2dd\	in
.	.	.	16g/	.	.	.	.	.	.	.	.	.
8BB/	.	.	16f/	.	.	.	.	.	.	.	.	.
.	.	.	16g/	.	.	.	.	.	.	.	.	.
8BB/	.	.	16f/	.	8r	.	.	.	.	.	.	.
.	.	.	16g/	.	.	.	.	.	.	.	.	.
8BB/	.	.	16f/	.	8g/L	.	.	.	.	.	.	.
.	.	.	16g/	.	.	.	.	.	.	.	.	.
8BB/	.	.	16f/	.	8b/	.	4d\	prin-	4g\	prin-	4dd\	prin-
.	.	.	16g/	.	.	.	.	.	.	.	.	.
8BB/J	.	.	16f/	.	8dd/J	.	.	.	.	.	.	.
.	.	.	16g/JJ	.	.	.	.	.	.	.	.	.
=111	=111	=111	=111	=111	=111	=111	=111	=111	=111	=111	=111	=111
8BB/L	6 5	.	16f/LL	.	8gg\L	.	4.d\	-ci-	4.g\	-ci-	4.dd\	-ci-
.	.	.	16g/	.	.	.	.	.	.	.	.	.
8BB/	.	.	16f/	.	8dd\	.	.	.	.	.	.	.
.	.	.	16g/	.	.	.	.	.	.	.	.	.
8BB/	.	.	16f/	.	8bb\	.	.	.	.	.	.	.
.	.	.	16g/	.	.	.	.	.	.	.	.	.
8BB/	.	.	16f/	.	8gg\	.	8d\	-pi-	8g\	-pi-	8dd\	-pi-
.	.	.	16g/	.	.	.	.	.	.	.	.	.
8BB/	.	.	16f/	.	8dd\	.	4d\	-o	4g\	-o	4dd\	-o
.	.	.	16g/	.	.	.	.	.	.	.	.	.
8BB/J	.	.	16f/	.	8gg\J	.	.	.	.	.	.	.
.	.	.	16g/JJ	.	.	.	.	.	.	.	.	.
=112	=112	=112	=112	=112	=112	=112	=112	=112	=112	=112	=112	=112
8C/L	.	.	16e/LL	.	8ee\L|	.	4c\	et	4g\	et	4ee\	et
.	.	.	16g/	.	.	.	.	.	.	.	.	.
8C/	.	.	16e/	.	8gg\J|	.	.	.	.	.	.	.
.	.	.	16g/	.	.	.	.	.	.	.	.	.
8C/	.	.	16e/	.	8r	.	4c\	nunc	4g\	nunc	4ee\	nunc
.	.	.	16g/	.	.	.	.	.	.	.	.	.
8C/J	.	.	16e/	.	8gg\|	.	.	.	.	.	.	.
.	.	.	16g/JJ	.	.	.	.	.	.	.	.	.
*Xtremolo	*	*	*Xtremolo	*	*	*	*	*	*	*	*	*
8BB/L	6_ 5_	.	16f/LL	.	(16gg\LL	.	4d\	et	4g\	et	4dd\	et
.	.	.	16g/	.	16ff\	.	.	.	.	.	.	.
8BB/J	.	.	16f/	.	16ee\	.	.	.	.	.	.	.
.	X	.	16g/JJ	.	16dd\JJ)	.	.	.	.	.	.	.
!	!	!	!	!	!LO:LB:g=original	!	!	!	!	!	!	!
=113	=113	=113	=113	=113	=113	=113	=113	=113	=113	=113	=113	=113
*tremolo	*	*	*tremolo	*	*	*	*	*	*	*	*	*
!LO:TX:a:t=P:problem=takt zapisany repetycją	!	!	!	!	!	!	!	!	!	!	!	!
8C/yyL	.	.	16e/LL	.	(8ee\L	.	2c\	Sem-	2g\	Sem-	2ee\	sem-
.	.	.	16g/	.	.	.	.	.	.	.	.	.
8C/yy	.	.	16e/	.	8gg\J)	.	.	.	.	.	.	.
.	.	.	16g/	.	.	.	.	.	.	.	.	.
8C/yy	.	.	16e/	.	8r	.	.	.	.	.	.	.
.	.	.	16g/	.	.	.	.	.	.	.	.	.
8C/yyJ	.	.	16e/	.	8gg\	.	.	.	.	.	.	.
.	.	.	16g/JJ	.	.	.	.	.	.	.	.	.
!	!	!	!LO:LB:g=original	!	!	!	!	!	!	!	!	!
*Xtremolo	*	*	*Xtremolo	*	*	*	*	*	*	*	*	*
8BB/Lyy	6_ 5_	.	16f/LL	.	16gg\LL	.	4d\	-per	4g\	-per	4dd\	-per
.	.	.	16g/	.	(16ff\	.	.	.	.	.	.	.
8BB/Jyy	.	.	16f/	.	16ee\	.	.	.	.	.	.	.
.	X	.	16g/JJ	.	16dd\JJ)	.	.	.	.	.	.	.
=114	=114	=114	=114	=114	=114	=114	=114	=114	=114	=114	=114	=114
*tremolo	*	*	*tremolo	*	*	*	*	*	*	*	*	*
8C/L	.	.	16e/LL	.	8.cc\L	.	2c\	et	2g\	et	2ee\	et
.	.	.	16g/	.	.	.	.	.	.	.	.	.
8C/	.	.	16e/	.	.	.	.	.	.	.	.	.
*	*	*	*	*	*Xtuplet	*	*	*	*	*	*	*
!	!	!	!	!	!LO:TUP:a:problem=klamra łukowa	!	!	!	!	!	!	!
.	.	.	16g/	.	48dd\LL	.	.	.	.	.	.	.
.	.	.	.	.	48cc\	.	.	.	.	.	.	.
.	.	.	.	.	48b\JJJ	.	.	.	.	.	.	.
8C/	.	.	16e/	.	8cc\L	.	.	.	.	.	.	.
.	.	.	16g/	.	.	.	.	.	.	.	.	.
8C/	.	.	16e/	.	8g\	.	.	.	.	.	.	.
.	.	.	16g/	.	.	.	.	.	.	.	.	.
8C/	.	.	16e/	.	8cc\	.	4c\	in	4g\	in	4ee\	in
.	.	.	16g/	.	.	.	.	.	.	.	.	.
8C/J	.	.	16e/	.	8ee\J	.	.	.	.	.	.	.
.	.	.	16g/JJ	.	.	.	.	.	.	.	.	.
=115	=115	=115	=115	=115	=115	=115	=115	=115	=115	=115	=115	=115
8C/L	.	.	16e/LL	.	8cc\L	.	4.c\	Sae-	4.g\	Sae-	4.ee\	Sae-
.	.	.	16g/	.	.	.	.	.	.	.	.	.
8C/	.	.	16e/	.	16ee\L	.	.	.	.	.	.	.
.	.	.	16g/	.	16dd\JJ	.	.	.	.	.	.	.
8C/	.	.	16e/	.	8ee\L	.	.	.	.	.	.	.
.	.	.	16g/	.	.	.	.	.	.	.	.	.
8C/	.	.	16e/	.	8cc\	.	8c\	-cu-	8g\	-cu-	8ee\	-cu-
.	.	.	16g/	.	.	.	.	.	.	.	.	.
8C/	.	.	16e/	.	8ee\	.	4c\	-la	4g\	-la	4ee\	-la
.	.	.	16g/	.	.	.	.	.	.	.	.	.
8C/J	.	.	16e/	.	8gg\J	.	.	.	.	.	.	.
.	.	.	16g/JJ	.	.	.	.	.	.	.	.	.
!	!	!	!	!	!	!	!LO:LB:g=original	!	!	!	!	!
=116	=116	=116	=116	=116	=116	=116	=116	=116	=116	=116	=116	=116
8C/L	.	.	16e/LL	.	8ee\L	.	2c\	Sae-	2g\	Sae-	2ee\	Sae-
.	.	.	16g/	.	.	.	.	.	.	.	.	.
8C/	.	.	16e/	.	16ccc\L	.	.	.	.	.	.	.
.	.	.	16g/	.	16bb\JJ	.	.	.	.	.	.	.
8C/	.	.	16e/	.	8ccc\L	.	.	.	.	.	.	.
.	.	.	16g/	.	.	.	.	.	.	.	.	.
8C/	.	.	16e/	.	8gg\	.	.	.	.	.	.	.
.	.	.	16g/	.	.	.	.	.	.	.	.	.
8C/	.	.	16e/	.	8ee\	.	4c\	-cu-	4g\	-cu-	4ee\	-cu-
.	.	.	16g/	.	.	.	.	.	.	.	.	.
8C/J	.	.	16e/	.	8gg\J	.	.	.	.	.	.	.
.	.	.	16g/JJ	.	.	.	.	.	.	.	.	.
*Xtremolo	*	*	*	*	*	*	*	*	*	*	*	*
!LO:LB:g=original	!	!	!	!	!	!	!	!	!LO:LB:g=original	!	!	!
=117	=117	=117	=117	=117	=117	=117	=117	=117	=117	=117	=117	=117
!LO:TX:a:t=P:problem=mixed beam	!	!	!LO:TX:a:t=P:problem=mixed beam	!	!	!	!	!	!	!	!	!
8F\L	6_	.	8d'/L	.	16ff\LL	.	8d\	-lo-	8a\	lo-	8ff\	-lo-
.	.	.	.	.	16aa\	.	.	.	.	.	.	.
8F\	.	.	8dd'>\	.	16gg\	.	8d\	-rum	8a\	-rum	8ff\	-rum
.	.	.	.	.	16ff\JJ	.	.	.	.	.	.	.
!	!	!	!	!	!	!	!	!	!	!	!LO:LB:g=original	!
8G\	4_	.	8cc'>\	.	8ee\L	.	4c\	A-	2g\	A-	4ee\	.
8G\	.	.	8ee'>\	.	8ccc\	.	.	.	.	.	.	.
8GG/	3_	.	8b'>\	.	8dd\	.	4B\	.	.	.	4dd\	A-
8GG/J	.	.	8dd'>\J	.	8bb\J	.	.	.	.	.	.	.
.	X	.	.	.	.	.	.	.	.	.	.	.
=118	=118	=118	=118	=118	=118	=118	=118	=118	=118	=118	=118	=118
4C/	.	.	8ee'\L	.	8ccc\L	.	4c\	-men	4g\	-men	4ee\	-men
.	.	.	8cc'\	.	8ee\	.	.	.	.	.	.	.
4F\	6_ 5_	.	8a'\	.	8dd\	.	4c\	a-	4a\	A-	2dd\	a-
.	.	.	8dd'\	.	8ccc\	.	.	.	.	.	.	.
4G\	.	.	8b'\	.	8dd\	.	4B\	.	4g\	.	.	.
.	X	.	8dd'\J	.	8bb\J	.	.	.	.	.	.	.
=119	=119	=119	=119	=119	=119	=119	=119	=119	=119	=119	=119	=119
*	*	*	*^	*	*	*	*	*	*	*	*	*
4C/	.	.	4ee/	4cc\	.	4ccc 4ee 4g\	.	4c\	-men	4g\	-men	4ee\	-men
4r	.	.	4r	2r	.	4r	.	4r	.	4r	.	4r	.
4r	.	.	4r	.	.	4r	.	4r	.	4r	.	4r	.
*	*	*	*v	*v	*	*	*	*	*	*	*	*	*
==	==	==	==	==	==	==	==	==	==	==	==	==
*-	*-	*-	*-	*-	*-	*-	*-	*-	*-	*-	*-	*-
!!!system-decoration: [g1][g2]s6
!!!RDF**kern: > = above
!!!RDF**dynam: pp = "pp."
!!!RDF**kern: | = vertical stroke
!!!ENC: Marta Lawrence
!!!END: 2020-10-29
!!!ENC: Andrzej Gręziak
!!!END: 2020-06-08
!!!YEC: Copyright 2022 Narodowy Instytut Fryderyka Chopina (https://polishscores.org)
!!!YEM: License CC-BY-4.0 (https://creativecommons.org/licenses/by/4.0)
